kendemu/Client/Plugin/KinectV2/Release/log.txt
KINECT_DATA POSITION:-0.000000,0.000000,-0.000000 HEAD_JOINT1 0.998632,-0.007207,0.000000,0.051794 LARM_JOINT2 0.845588,0.000000,-0.036489,-0.532587 LARM_JOINT3 0.935987,0.000000,-0.341346,-0.086089 LLEG_JOINT2 0.996315,-0.060450,0.000000,0.060854 LLEG_JOINT4 0.995023,0.080340,0.000000,-0.058942 RARM_JOINT2 0.807364,0.000000,-0.045348,0.588308 RARM_JOINT3 0.924384,0.000000,0.351033,0.149295 RLEG_JOINT2 0.997790,-0.056446,-0.000000,-0.035058 RLEG_JOINT4 0.996918,-0.064454,0.000000,0.044725 WAIST 0.997654,0.000000,-0.068277,0.005000 WAIST_JOINT0 0.997522,0.000000,-0.070197,0.004665 WAIST_JOINT1 0.999556,0.028623,-0.000000,0.008323 END:
KINECT_DATA POSITION:0.999308,-0.115554,-1.605624 HEAD_JOINT1 0.999541,0.002410,-0.000000,0.030196 LARM_JOINT2 0.846680,0.000000,-0.028537,-0.531336 LARM_JOINT3 0.717359,0.000000,-0.649520,0.252032 LLEG_JOINT2 0.992697,0.107806,0.000000,0.054140 LLEG_JOINT4 0.999671,0.008203,0.000000,-0.024283 RARM_JOINT2 0.824764,0.000000,-0.033347,0.564493 RARM_JOINT3 0.831192,0.000000,0.554157,-0.045066 RLEG_JOINT2 0.981063,-0.163336,-0.000000,-0.104102 RLEG_JOINT4 0.997484,-0.059862,0.000000,0.037987 WAIST 0.998220,0.000000,-0.059482,-0.004361 WAIST_JOINT0 0.998295,0.000000,-0.058159,-0.004900 WAIST_JOINT1 0.999549,0.030013,-0.000000,0.001113 END:
KINECT_DATA POSITION:1.503098,0.027433,-2.537405 HEAD_JOINT1 0.999966,-0.004576,0.000000,0.006854 LARM_JOINT2 0.883948,0.000000,-0.159390,-0.439580 LARM_JOINT3 0.645156,0.000000,-0.613418,0.455514 LLEG_JOINT2 0.998236,0.047841,0.000000,0.035151 LLEG_JOINT4 0.998874,0.026604,0.000000,-0.039267 RARM_JOINT2 0.809390,0.000000,0.072618,0.582765 RARM_JOINT3 0.744977,0.000000,0.597847,-0.295951 RLEG_JOINT2 0.987448,-0.127364,-0.000000,-0.093410 RLEG_JOINT4 0.996081,-0.085273,0.000000,0.023487 WAIST 0.998399,0.000000,-0.049316,-0.027683 WAIST_JOINT0 0.998648,0.000000,-0.050397,-0.012717 WAIST_JOINT1 0.999029,0.043420,0.000000,-0.007512 END:
KINECT_DATA POSITION:1.788878,0.181066,-3.175384 HEAD_JOINT1 0.999669,0.022309,-0.000000,0.012852 LARM_JOINT2 0.896261,0.000000,-0.110616,-0.429513 LARM_JOINT3 0.524083,0.000000,-0.625313,0.578205 LLEG_JOINT2 0.999451,0.018126,0.000000,0.027739 LLEG_JOINT4 0.997964,-0.005565,-0.000000,-0.063532 RARM_JOINT2 0.808596,0.000000,0.044783,0.586657 RARM_JOINT3 0.598634,0.000000,0.711993,-0.367020 RLEG_JOINT2 0.992664,-0.098948,-0.000000,-0.069484 RLEG_JOINT4 0.997779,0.043275,0.000000,0.050632 WAIST 0.995439,0.000000,-0.089745,-0.032348 WAIST_JOINT0 0.996835,0.000000,-0.076259,-0.022482 WAIST_JOINT1 0.999260,0.033592,0.000000,-0.018714 END:
KINECT_DATA POSITION:2.025739,0.238453,-3.832419 HEAD_JOINT1 0.999524,0.019219,-0.000000,0.024138 LARM_JOINT2 0.930209,0.000000,-0.150759,-0.334639 LARM_JOINT3 0.518832,0.000000,-0.482080,0.705984 LLEG_JOINT2 0.999366,-0.032639,0.000000,0.014253 LLEG_JOINT4 0.997377,0.029285,0.000000,-0.066199 RARM_JOINT2 0.830508,0.000000,0.108482,0.546341 RARM_JOINT3 0.520648,0.000000,0.638268,-0.567045 RLEG_JOINT2 0.999323,0.034143,0.000000,-0.013714 RLEG_JOINT4 0.995181,0.093907,0.000000,0.028222 WAIST 0.993979,0.000000,-0.108842,-0.012598 WAIST_JOINT0 0.994236,0.000000,-0.105421,-0.019507 WAIST_JOINT1 0.999524,0.021702,0.000000,-0.021922 END:
KINECT_DATA POSITION:2.146173,0.191352,-4.498962 HEAD_JOINT1 0.999688,0.006856,-0.000000,0.024018 LARM_JOINT2 0.953761,0.000000,-0.181726,-0.239406 LARM_JOINT3 0.548950,0.000000,-0.312457,0.775258 LLEG_JOINT2 0.997628,-0.068356,-0.000000,-0.008063 LLEG_JOINT4 0.999064,0.029613,0.000000,-0.031529 RARM_JOINT2 0.889259,0.000000,0.186208,0.417787 RARM_JOINT3 0.501244,0.000000,0.467949,-0.727859 RLEG_JOINT2 0.995130,0.085018,0.000000,0.049889 RLEG_JOINT4 0.998413,-0.018968,-0.000000,-0.053028 WAIST 0.990539,0.000000,-0.136684,0.012278 WAIST_JOINT0 0.991529,0.000000,-0.129760,-0.005755 WAIST_JOINT1 0.999422,0.030277,0.000000,-0.015460 END:
KINECT_DATA POSITION:2.230313,0.235781,-5.116726 HEAD_JOINT1 0.999512,-0.003089,0.000000,0.031077 LARM_JOINT2 0.960612,0.000000,-0.182552,-0.209521 LARM_JOINT3 0.565432,0.000000,-0.283125,0.774679 LLEG_JOINT2 0.997613,-0.064299,-0.000000,-0.025193 LLEG_JOINT4 0.989407,-0.140687,-0.000000,-0.035799 RARM_JOINT2 0.913214,0.000000,0.263238,0.311040 RARM_JOINT3 0.511826,0.000000,0.278706,-0.812623 RLEG_JOINT2 0.995485,0.061876,0.000000,0.071979 RLEG_JOINT4 0.993575,-0.042646,-0.000000,-0.104830 WAIST 0.988836,0.000000,-0.147599,0.020460 WAIST_JOINT0 0.988104,0.000000,-0.153729,0.004297 WAIST_JOINT1 0.999263,0.037612,0.000000,-0.007661 END:
KINECT_DATA POSITION:2.277576,0.255825,-5.488187 HEAD_JOINT1 0.998111,0.012688,-0.000000,0.060111 LARM_JOINT2 0.963079,0.000000,-0.195566,-0.185022 LARM_JOINT3 0.571229,0.000000,-0.294321,0.766207 LLEG_JOINT2 0.996629,-0.080327,-0.000000,-0.016687 LLEG_JOINT4 0.987858,-0.143152,-0.000000,-0.060365 RARM_JOINT2 0.931435,0.000000,0.280280,0.232102 RARM_JOINT3 0.577469,0.000000,0.195270,-0.792716 RLEG_JOINT2 0.997031,0.030445,0.000000,0.070727 RLEG_JOINT4 0.994131,-0.049265,-0.000000,-0.096320 WAIST 0.988618,0.000000,-0.148689,0.022930 WAIST_JOINT0 0.986982,0.000000,-0.160589,0.008796 WAIST_JOINT1 0.999530,0.028925,0.000000,-0.010152 END:
KINECT_DATA POSITION:2.295493,0.268174,-5.744561 HEAD_JOINT1 0.998914,0.012483,-0.000000,0.044892 LARM_JOINT2 0.978496,0.000000,-0.204766,0.024819 LARM_JOINT3 0.678286,0.000000,-0.256971,0.688400 LLEG_JOINT2 0.996711,-0.080285,-0.000000,-0.011046 LLEG_JOINT4 0.984482,-0.161131,-0.000000,-0.069515 RARM_JOINT2 0.942245,0.000000,0.299824,0.149264 RARM_JOINT3 0.635973,0.000000,0.127251,-0.761148 RLEG_JOINT2 0.997188,0.019042,0.000000,0.072479 RLEG_JOINT4 0.993949,-0.022082,-0.000000,-0.107597 WAIST 0.988231,0.000000,-0.151272,0.022700 WAIST_JOINT0 0.986767,0.000000,-0.162101,0.003791 WAIST_JOINT1 0.999815,0.016093,0.000000,-0.010514 END:
KINECT_DATA POSITION:2.296181,0.265199,-5.820456 HEAD_JOINT1 0.998626,0.011726,-0.000000,0.051075 LARM_JOINT2 0.975709,0.000000,-0.215218,0.040913 LARM_JOINT3 0.628974,0.000000,-0.230071,0.742602 LLEG_JOINT2 0.996834,-0.078894,-0.000000,-0.009883 LLEG_JOINT4 0.983062,-0.169357,-0.000000,-0.070054 RARM_JOINT2 0.944351,0.000000,0.298629,0.137922 RARM_JOINT3 0.645847,0.000000,0.154433,-0.747685 RLEG_JOINT2 0.997451,0.023436,0.000000,0.067389 RLEG_JOINT4 0.993249,-0.049689,-0.000000,-0.104820 WAIST 0.987438,0.000000,-0.156343,0.022871 WAIST_JOINT0 0.986729,0.000000,-0.162301,0.004943 WAIST_JOINT1 0.999851,0.009021,0.000000,-0.014688 END:
KINECT_DATA POSITION:2.284048,0.260006,-5.854261 HEAD_JOINT1 0.998319,0.021295,-0.000000,0.053908 LARM_JOINT2 0.974724,0.000000,-0.218165,0.048141 LARM_JOINT3 0.635681,0.000000,-0.234944,0.735330 LLEG_JOINT2 0.996840,-0.079091,-0.000000,-0.007401 LLEG_JOINT4 0.982064,-0.173818,-0.000000,-0.073064 RARM_JOINT2 0.942213,0.000000,0.295698,0.157473 RARM_JOINT3 0.647142,0.000000,0.187194,-0.739030 RLEG_JOINT2 0.997502,0.024480,0.000000,0.066264 RLEG_JOINT4 0.992574,-0.062406,-0.000000,-0.104411 WAIST 0.987421,0.000000,-0.156554,0.022163 WAIST_JOINT0 0.986944,0.000000,-0.161029,0.003369 WAIST_JOINT1 0.999840,0.002760,0.000000,-0.017681 END:
KINECT_DATA POSITION:2.267115,0.254240,-5.872557 HEAD_JOINT1 0.998098,0.021628,-0.000000,0.057736 LARM_JOINT2 0.974242,0.000000,-0.220265,0.048325 LARM_JOINT3 0.639763,0.000000,-0.239751,0.730221 LLEG_JOINT2 0.996753,-0.080336,-0.000000,-0.005438 LLEG_JOINT4 0.982274,-0.172129,-0.000000,-0.074222 RARM_JOINT2 0.944117,0.000000,0.284873,0.165800 RARM_JOINT3 0.633185,0.000000,0.208761,-0.745316 RLEG_JOINT2 0.997392,0.018613,0.000000,0.069740 RLEG_JOINT4 0.992951,-0.058563,-0.000000,-0.103046 WAIST 0.987658,0.000000,-0.155144,0.021481 WAIST_JOINT0 0.987575,0.000000,-0.157139,0.001878 WAIST_JOINT1 0.999819,0.001119,0.000000,-0.019012 END:
KINECT_DATA POSITION:2.250424,0.248653,-5.880783 HEAD_JOINT1 0.998793,-0.009476,0.000000,0.048189 LARM_JOINT2 0.973530,0.000000,-0.222903,0.050537 LARM_JOINT3 0.609613,0.000000,-0.265746,0.746828 LLEG_JOINT2 0.996840,-0.079308,-0.000000,-0.004455 LLEG_JOINT4 0.981429,-0.176858,-0.000000,-0.074280 RARM_JOINT2 0.958307,0.000000,0.261465,0.115251 RARM_JOINT3 0.669513,0.000000,0.267344,-0.693022 RLEG_JOINT2 0.997265,0.014611,0.000000,0.072444 RLEG_JOINT4 0.993318,-0.057159,-0.000000,-0.100263 WAIST 0.987865,0.000000,-0.153954,0.020532 WAIST_JOINT0 0.988400,0.000000,-0.151867,0.001652 WAIST_JOINT1 0.999818,0.009085,0.000000,-0.016769 END:
KINECT_DATA POSITION:2.237382,0.244814,-5.879339 HEAD_JOINT1 0.998828,0.008954,-0.000000,0.047563 LARM_JOINT2 0.974043,0.000000,-0.221613,0.046119 LARM_JOINT3 0.611805,0.000000,-0.292009,0.735136 LLEG_JOINT2 0.997054,-0.076536,-0.000000,-0.005130 LLEG_JOINT4 0.980425,-0.183252,-0.000000,-0.072014 RARM_JOINT2 0.958790,0.000000,0.259195,0.116357 RARM_JOINT3 0.659182,0.000000,0.286780,-0.695152 RLEG_JOINT2 0.997224,0.016109,0.000000,0.072699 RLEG_JOINT4 0.992636,-0.063410,-0.000000,-0.103217 WAIST 0.988090,0.000000,-0.152386,0.021382 WAIST_JOINT0 0.988584,0.000000,-0.150631,0.003579 WAIST_JOINT1 0.999866,0.003097,0.000000,-0.016067 END:
KINECT_DATA POSITION:2.221046,0.239766,-5.876576 HEAD_JOINT1 0.998884,0.018840,-0.000000,0.043322 LARM_JOINT2 0.975113,0.000000,-0.217974,0.040519 LARM_JOINT3 0.652011,0.000000,-0.257351,0.713199 LLEG_JOINT2 0.997118,-0.075751,-0.000000,-0.004085 LLEG_JOINT4 0.979875,-0.186046,-0.000000,-0.072330 RARM_JOINT2 0.959265,0.000000,0.264622,0.098928 RARM_JOINT3 0.658233,0.000000,0.259278,-0.706757 RLEG_JOINT2 0.997198,0.019899,0.000000,0.072117 RLEG_JOINT4 0.992855,-0.072310,-0.000000,-0.094922 WAIST 0.988136,0.000000,-0.151870,0.022860 WAIST_JOINT0 0.988418,0.000000,-0.151705,0.003871 WAIST_JOINT1 0.999893,0.000740,0.000000,-0.014598 END:
KINECT_DATA POSITION:2.194123,0.234203,-5.871903 HEAD_JOINT1 0.998718,0.026281,-0.000000,0.043273 LARM_JOINT2 0.975973,0.000000,-0.216109,0.027815 LARM_JOINT3 0.667475,0.000000,-0.201745,0.716782 LLEG_JOINT2 0.996899,-0.078692,-0.000000,-0.000159 LLEG_JOINT4 0.980624,-0.180368,-0.000000,-0.076439 RARM_JOINT2 0.955578,0.000000,0.277190,0.100178 RARM_JOINT3 0.650519,0.000000,0.130122,-0.748260 RLEG_JOINT2 0.996979,0.020400,0.000000,0.074949 RLEG_JOINT4 0.992842,-0.071349,-0.000000,-0.095783 WAIST 0.988213,0.000000,-0.151376,0.022823 WAIST_JOINT0 0.988548,0.000000,-0.150882,0.002782 WAIST_JOINT1 0.999898,-0.000358,0.000000,-0.014242 END:
KINECT_DATA POSITION:2.176167,0.233686,-5.869969 HEAD_JOINT1 0.998483,0.029707,-0.000000,0.046356 LARM_JOINT2 0.974772,0.000000,-0.221973,0.023399 LARM_JOINT3 0.665759,0.000000,-0.210427,0.715881 LLEG_JOINT2 0.996940,-0.078155,0.000000,0.001172 LLEG_JOINT4 0.980989,-0.178726,-0.000000,-0.075619 RARM_JOINT2 0.953166,0.000000,0.286358,0.097333 RARM_JOINT3 0.662288,0.000000,0.092434,-0.743526 RLEG_JOINT2 0.996867,0.022995,0.000000,0.075686 RLEG_JOINT4 0.992632,-0.075581,-0.000000,-0.094710 WAIST 0.987887,0.000000,-0.153348,0.023733 WAIST_JOINT0 0.988382,0.000000,-0.151976,0.002096 WAIST_JOINT1 0.999901,-0.000479,0.000000,-0.014061 END:
KINECT_DATA POSITION:2.160597,0.228381,-5.869980 HEAD_JOINT1 0.998272,0.033011,-0.000000,0.048619 LARM_JOINT2 0.973266,0.000000,-0.226974,0.035157 LARM_JOINT3 0.675726,0.000000,-0.229687,0.700455 LLEG_JOINT2 0.997011,-0.077208,0.000000,0.002826 LLEG_JOINT4 0.980403,-0.180908,-0.000000,-0.077992 RARM_JOINT2 0.951295,0.000000,0.291462,0.100435 RARM_JOINT3 0.654998,0.000000,0.083577,-0.750995 RLEG_JOINT2 0.996913,0.028477,0.000000,0.073165 RLEG_JOINT4 0.990902,-0.086742,-0.000000,-0.102905 WAIST 0.987741,0.000000,-0.154174,0.024456 WAIST_JOINT0 0.987850,0.000000,-0.155409,0.000576 WAIST_JOINT1 0.999911,-0.000845,0.000000,-0.013321 END:
KINECT_DATA POSITION:2.148950,0.223866,-5.873493 HEAD_JOINT1 0.998146,0.032498,-0.000000,0.051455 LARM_JOINT2 0.973807,0.000000,-0.224212,0.037788 LARM_JOINT3 0.688079,0.000000,-0.178223,0.703408 LLEG_JOINT2 0.996502,-0.083261,0.000000,0.007217 LLEG_JOINT4 0.981984,-0.168565,-0.000000,-0.085399 RARM_JOINT2 0.951250,0.000000,0.288291,0.109594 RARM_JOINT3 0.653766,0.000000,0.086827,-0.751699 RLEG_JOINT2 0.996826,0.029115,0.000000,0.074098 RLEG_JOINT4 0.992054,-0.097489,-0.000000,-0.079535 WAIST 0.987448,0.000000,-0.155938,0.025111 WAIST_JOINT0 0.987506,0.000000,-0.157583,0.000379 WAIST_JOINT1 0.999914,-0.001226,0.000000,-0.013090 END:
KINECT_DATA POSITION:2.141104,0.221358,-5.876118 HEAD_JOINT1 0.997974,0.033617,-0.000000,0.054024 LARM_JOINT2 0.973897,0.000000,-0.223688,0.038592 LARM_JOINT3 0.712173,0.000000,-0.209424,0.670038 LLEG_JOINT2 0.996697,-0.080927,0.000000,0.006753 LLEG_JOINT4 0.981301,-0.173212,-0.000000,-0.083946 RARM_JOINT2 0.954865,0.000000,0.275738,0.110462 RARM_JOINT3 0.664124,0.000000,0.101863,-0.740651 RLEG_JOINT2 0.996688,0.023834,0.000000,0.077746 RLEG_JOINT4 0.993332,-0.075346,-0.000000,-0.087259 WAIST 0.987189,0.000000,-0.157536,0.025310 WAIST_JOINT0 0.987466,0.000000,-0.157833,0.000507 WAIST_JOINT1 0.999912,-0.002819,0.000000,-0.012936 END:
KINECT_DATA POSITION:2.134917,0.218514,-5.877687 HEAD_JOINT1 0.997809,0.038135,-0.000000,0.054062 LARM_JOINT2 0.977153,0.000000,-0.210030,0.032539 LARM_JOINT3 0.724773,0.000000,-0.240155,0.645778 LLEG_JOINT2 0.996895,-0.078444,0.000000,0.006873 LLEG_JOINT4 0.980170,-0.179371,-0.000000,-0.084214 RARM_JOINT2 0.959086,0.000000,0.271811,0.079201 RARM_JOINT3 0.701089,0.000000,0.116784,-0.703445 RLEG_JOINT2 0.996536,0.021896,0.000000,0.080223 RLEG_JOINT4 0.991112,-0.081178,-0.000000,-0.105395 WAIST 0.986887,0.000000,-0.159241,0.026411 WAIST_JOINT0 0.986979,0.000000,-0.160811,0.003382 WAIST_JOINT1 0.999905,-0.006204,0.000000,-0.012348 END:
KINECT_DATA POSITION:2.130978,0.213815,-5.885524 HEAD_JOINT1 0.997784,0.037989,-0.000000,0.054619 LARM_JOINT2 0.978764,0.000000,-0.203907,0.021059 LARM_JOINT3 0.736190,0.000000,-0.230287,0.636390 LLEG_JOINT2 0.997146,-0.075237,0.000000,0.006224 LLEG_JOINT4 0.978879,-0.187404,-0.000000,-0.081704 RARM_JOINT2 0.967261,0.000000,0.247110,0.057812 RARM_JOINT3 0.734814,0.000000,0.124510,-0.666742 RLEG_JOINT2 0.996419,0.019675,0.000000,0.082231 RLEG_JOINT4 0.992652,-0.051354,-0.000000,-0.109567 WAIST 0.986636,0.000000,-0.160509,0.028034 WAIST_JOINT0 0.987488,0.000000,-0.157650,0.003693 WAIST_JOINT1 0.999893,-0.008557,0.000000,-0.011852 END:
KINECT_DATA POSITION:2.126580,0.212004,-5.894593 HEAD_JOINT1 0.997789,0.036861,-0.000000,0.055307 LARM_JOINT2 0.982295,0.000000,-0.187318,0.003050 LARM_JOINT3 0.721960,0.000000,-0.242260,0.648138 LLEG_JOINT2 0.997381,-0.072170,0.000000,0.004777 LLEG_JOINT4 0.978459,-0.190023,-0.000000,-0.080673 RARM_JOINT2 0.965883,0.000000,0.248953,0.071367 RARM_JOINT3 0.725033,0.000000,0.138204,-0.674705 RLEG_JOINT2 0.996495,0.021704,0.000000,0.080789 RLEG_JOINT4 0.991707,-0.074603,-0.000000,-0.104647 WAIST 0.986342,0.000000,-0.162200,0.028662 WAIST_JOINT0 0.986627,0.000000,-0.162842,0.007049 WAIST_JOINT1 0.999868,-0.010511,0.000000,-0.012420 END:
KINECT_DATA POSITION:2.131029,0.206177,-5.910177 HEAD_JOINT1 0.997958,0.034596,-0.000000,0.053699 LARM_JOINT2 0.983648,0.000000,-0.179963,-0.007118 LARM_JOINT3 0.730584,0.000000,-0.196461,0.653950 LLEG_JOINT2 0.997474,-0.070880,0.000000,0.004601 LLEG_JOINT4 0.977708,-0.193696,-0.000000,-0.081048 RARM_JOINT2 0.964887,0.000000,0.252395,0.072735 RARM_JOINT3 0.718000,0.000000,0.104590,-0.688140 RLEG_JOINT2 0.996468,0.017217,0.000000,0.082188 RLEG_JOINT4 0.991245,-0.069365,-0.000000,-0.112349 WAIST 0.985701,0.000000,-0.165543,0.031455 WAIST_JOINT0 0.986289,0.000000,-0.164770,0.009211 WAIST_JOINT1 0.999862,-0.011881,0.000000,-0.011607 END:
KINECT_DATA POSITION:2.131801,0.201830,-5.928240 HEAD_JOINT1 0.997950,0.031190,-0.000000,0.055884 LARM_JOINT2 0.983107,0.000000,-0.182645,-0.011910 LARM_JOINT3 0.719945,0.000000,-0.144034,0.678921 LLEG_JOINT2 0.997490,-0.070648,0.000000,0.004719 LLEG_JOINT4 0.977169,-0.196868,-0.000000,-0.079896 RARM_JOINT2 0.968078,0.000000,0.234844,0.087592 RARM_JOINT3 0.696609,0.000000,0.068215,-0.714200 RLEG_JOINT2 0.997094,0.035511,0.000000,0.067403 RLEG_JOINT4 0.989186,-0.120204,-0.000000,-0.084036 WAIST 0.985324,0.000000,-0.167546,0.032639 WAIST_JOINT0 0.986956,0.000000,-0.160757,0.008669 WAIST_JOINT1 0.999855,-0.012436,0.000000,-0.011661 END:
KINECT_DATA POSITION:2.129398,0.196816,-5.947825 HEAD_JOINT1 0.997983,0.029442,-0.000000,0.056234 LARM_JOINT2 0.984146,0.000000,-0.176537,-0.017088 LARM_JOINT3 0.694972,0.000000,-0.148689,0.703495 LLEG_JOINT2 0.997456,-0.071107,0.000000,0.005045 LLEG_JOINT4 0.976775,-0.197971,-0.000000,-0.081963 RARM_JOINT2 0.963748,0.000000,0.249998,0.093229 RARM_JOINT3 0.680849,0.000000,0.062097,-0.729787 RLEG_JOINT2 0.996694,0.021102,0.000000,0.078464 RLEG_JOINT4 0.989942,-0.088352,-0.000000,-0.110494 WAIST 0.984638,0.000000,-0.171188,0.034382 WAIST_JOINT0 0.986074,0.000000,-0.165975,0.010494 WAIST_JOINT1 0.999841,-0.013307,0.000000,-0.011890 END:
KINECT_DATA POSITION:2.131227,0.194969,-5.965855 HEAD_JOINT1 0.998058,0.027730,-0.000000,0.055783 LARM_JOINT2 0.984646,0.000000,-0.173661,-0.017715 LARM_JOINT3 0.661740,0.000000,-0.196372,0.723559 LLEG_JOINT2 0.997187,-0.074721,0.000000,0.005941 LLEG_JOINT4 0.977814,-0.192147,-0.000000,-0.083426 RARM_JOINT2 0.962908,0.000000,0.251366,0.098102 RARM_JOINT3 0.645393,0.000000,0.068348,-0.760787 RLEG_JOINT2 0.996704,0.018693,0.000000,0.078936 RLEG_JOINT4 0.987899,-0.109194,-0.000000,-0.110144 WAIST 0.984779,0.000000,-0.170266,0.034926 WAIST_JOINT0 0.985845,0.000000,-0.167258,0.011598 WAIST_JOINT1 0.999833,-0.014260,0.000000,-0.011407 END:
KINECT_DATA POSITION:2.129491,0.193210,-5.981015 HEAD_JOINT1 0.998121,0.026833,-0.000000,0.055077 LARM_JOINT2 0.984523,0.000000,-0.174836,-0.012163 LARM_JOINT3 0.653827,0.000000,-0.230033,0.720830 LLEG_JOINT2 0.997114,-0.075666,0.000000,0.006217 LLEG_JOINT4 0.977600,-0.192934,-0.000000,-0.084112 RARM_JOINT2 0.962617,0.000000,0.251820,0.099780 RARM_JOINT3 0.616133,0.000000,0.093957,-0.782018 RLEG_JOINT2 0.996689,0.016210,0.000000,0.079672 RLEG_JOINT4 0.991546,-0.084749,-0.000000,-0.098255 WAIST 0.985157,0.000000,-0.168113,0.034683 WAIST_JOINT0 0.985708,0.000000,-0.168049,0.011773 WAIST_JOINT1 0.999827,-0.014727,0.000000,-0.011324 END:
KINECT_DATA POSITION:2.128668,0.191635,-5.988817 HEAD_JOINT1 0.998140,0.025562,-0.000000,0.055347 LARM_JOINT2 0.984299,0.000000,-0.176335,-0.007876 LARM_JOINT3 0.631799,0.000000,-0.242518,0.736217 LLEG_JOINT2 0.997101,-0.075827,0.000000,0.006334 LLEG_JOINT4 0.977479,-0.193509,-0.000000,-0.084194 RARM_JOINT2 0.962799,0.000000,0.251060,0.099932 RARM_JOINT3 0.593514,0.000000,0.094960,-0.799202 RLEG_JOINT2 0.996563,0.016915,0.000000,0.081091 RLEG_JOINT4 0.991404,-0.076067,-0.000000,-0.106448 WAIST 0.985482,0.000000,-0.166299,0.034202 WAIST_JOINT0 0.985670,0.000000,-0.168228,0.012429 WAIST_JOINT1 0.999816,-0.015290,0.000000,-0.011625 END:
KINECT_DATA POSITION:2.124402,0.189037,-5.997108 HEAD_JOINT1 0.998057,0.026623,-0.000000,0.056334 LARM_JOINT2 0.983727,0.000000,-0.179615,-0.004418 LARM_JOINT3 0.627210,0.000000,-0.244380,0.739517 LLEG_JOINT2 0.996953,-0.077661,0.000000,0.007358 LLEG_JOINT4 0.977292,-0.193342,-0.000000,-0.086716 RARM_JOINT2 0.963225,0.000000,0.248657,0.101816 RARM_JOINT3 0.584535,0.000000,0.092074,-0.806127 RLEG_JOINT2 0.996254,0.007675,0.000000,0.086138 RLEG_JOINT4 0.991394,-0.065758,-0.000000,-0.113201 WAIST 0.985572,0.000000,-0.165927,0.033410 WAIST_JOINT0 0.985661,0.000000,-0.168250,0.012820 WAIST_JOINT1 0.999805,-0.015589,0.000000,-0.012159 END:
KINECT_DATA POSITION:2.121300,0.187993,-6.001687 HEAD_JOINT1 0.998078,0.026134,-0.000000,0.056196 LARM_JOINT2 0.983520,0.000000,-0.180782,0.002518 LARM_JOINT3 0.621168,0.000000,-0.147759,0.769622 LLEG_JOINT2 0.996884,-0.078424,0.000000,0.008429 LLEG_JOINT4 0.977854,-0.190078,-0.000000,-0.087583 RARM_JOINT2 0.962797,0.000000,0.249556,0.103647 RARM_JOINT3 0.597586,0.000000,0.062111,-0.799396 RLEG_JOINT2 0.996661,0.015463,0.000000,0.080173 RLEG_JOINT4 0.992187,-0.075512,-0.000000,-0.099308 WAIST 0.985527,0.000000,-0.166231,0.033219 WAIST_JOINT0 0.985408,0.000000,-0.169777,0.012117 WAIST_JOINT1 0.999802,-0.015570,0.000000,-0.012422 END:
KINECT_DATA POSITION:2.117689,0.187017,-6.007949 HEAD_JOINT1 0.998051,0.027100,-0.000000,0.056217 LARM_JOINT2 0.982897,0.000000,-0.183275,0.017966 LARM_JOINT3 0.679639,0.000000,-0.202033,0.705177 LLEG_JOINT2 0.996900,-0.078188,0.000000,0.008754 LLEG_JOINT4 0.978184,-0.188147,-0.000000,-0.088075 RARM_JOINT2 0.967122,0.000000,0.245289,0.067148 RARM_JOINT3 0.674895,0.000000,0.143110,-0.723904 RLEG_JOINT2 0.997148,0.027393,0.000000,0.070319 RLEG_JOINT4 0.991229,-0.095360,-0.000000,-0.091498 WAIST 0.985219,0.000000,-0.168128,0.032825 WAIST_JOINT0 0.985340,0.000000,-0.170181,0.012018 WAIST_JOINT1 0.999804,-0.015328,0.000000,-0.012568 END:
KINECT_DATA POSITION:2.115668,0.189325,-6.012306 HEAD_JOINT1 0.997987,0.029060,-0.000000,0.056363 LARM_JOINT2 0.984457,0.000000,-0.174880,0.016139 LARM_JOINT3 0.682615,0.000000,-0.295700,0.668280 LLEG_JOINT2 0.996916,-0.078044,0.000000,0.008264 LLEG_JOINT4 0.977815,-0.190151,-0.000000,-0.087871 RARM_JOINT2 0.967172,0.000000,0.244134,0.070542 RARM_JOINT3 0.691781,0.000000,0.182674,-0.698620 RLEG_JOINT2 0.997034,0.023257,0.000000,0.073359 RLEG_JOINT4 0.991813,-0.089595,-0.000000,-0.090996 WAIST 0.985154,0.000000,-0.168492,0.032879 WAIST_JOINT0 0.985236,0.000000,-0.170716,0.012910 WAIST_JOINT1 0.999801,-0.015588,0.000000,-0.012474 END:
KINECT_DATA POSITION:2.113909,0.188211,-6.016958 HEAD_JOINT1 0.997993,0.029476,-0.000000,0.056055 LARM_JOINT2 0.984863,0.000000,-0.173053,0.009904 LARM_JOINT3 0.684499,0.000000,-0.318578,0.655721 LLEG_JOINT2 0.996966,-0.077414,0.000000,0.008071 LLEG_JOINT4 0.977592,-0.191717,-0.000000,-0.086945 RARM_JOINT2 0.966990,0.000000,0.242331,0.078775 RARM_JOINT3 0.694573,0.000000,0.207892,-0.688730 RLEG_JOINT2 0.996710,0.017132,0.000000,0.079221 RLEG_JOINT4 0.989742,-0.090216,-0.000000,-0.110776 WAIST 0.985213,0.000000,-0.168069,0.033290 WAIST_JOINT0 0.985290,0.000000,-0.170388,0.013089 WAIST_JOINT1 0.999807,-0.015347,0.000000,-0.012269 END:
KINECT_DATA POSITION:2.112569,0.188446,-6.018651 HEAD_JOINT1 0.997900,0.031857,-0.000000,0.056395 LARM_JOINT2 0.984803,0.000000,-0.173592,0.005336 LARM_JOINT3 0.685488,0.000000,-0.331110,0.648438 LLEG_JOINT2 0.996864,-0.078645,0.000000,0.008818 LLEG_JOINT4 0.977665,-0.190668,-0.000000,-0.088413 RARM_JOINT2 0.966356,0.000000,0.243409,0.083112 RARM_JOINT3 0.687193,0.000000,0.227012,-0.690096 RLEG_JOINT2 0.996621,0.016659,0.000000,0.080432 RLEG_JOINT4 0.991385,-0.080405,-0.000000,-0.103397 WAIST 0.985224,0.000000,-0.168013,0.033254 WAIST_JOINT0 0.985375,0.000000,-0.169841,0.013805 WAIST_JOINT1 0.999827,-0.014981,0.000000,-0.011066 END:
KINECT_DATA POSITION:2.108269,0.189487,-6.019397 HEAD_JOINT1 0.997643,0.034442,-0.000000,0.059344 LARM_JOINT2 0.984846,0.000000,-0.173429,0.000918 LARM_JOINT3 0.677206,0.000000,-0.337698,0.653722 LLEG_JOINT2 0.996764,-0.079886,0.000000,0.008880 LLEG_JOINT4 0.978568,-0.186451,-0.000000,-0.087405 RARM_JOINT2 0.965168,0.000000,0.245994,0.089096 RARM_JOINT3 0.683381,0.000000,0.236689,-0.690629 RLEG_JOINT2 0.997072,0.028112,0.000000,0.071118 RLEG_JOINT4 0.990849,-0.105360,-0.000000,-0.084360 WAIST 0.985094,0.000000,-0.168635,0.033950 WAIST_JOINT0 0.985364,0.000000,-0.169829,0.014670 WAIST_JOINT1 0.999843,-0.014262,0.000000,-0.010547 END:
KINECT_DATA POSITION:2.101572,0.190085,-6.016389 HEAD_JOINT1 0.997538,0.035548,-0.000000,0.060457 LARM_JOINT2 0.984847,0.000000,-0.173422,0.000605 LARM_JOINT3 0.680405,0.000000,-0.344667,0.646725 LLEG_JOINT2 0.996493,-0.083015,0.000000,0.010534 LLEG_JOINT4 0.979914,-0.178557,-0.000000,-0.088802 RARM_JOINT2 0.964708,0.000000,0.247375,0.090243 RARM_JOINT3 0.683088,0.000000,0.241927,-0.689103 RLEG_JOINT2 0.996756,0.016918,0.000000,0.078682 RLEG_JOINT4 0.993286,-0.067523,-0.000000,-0.093935 WAIST 0.985091,0.000000,-0.168478,0.034795 WAIST_JOINT0 0.985219,0.000000,-0.170625,0.015212 WAIST_JOINT1 0.999855,-0.013739,0.000000,-0.010063 END:
KINECT_DATA POSITION:2.093711,0.192152,-6.011331 HEAD_JOINT1 0.997468,0.036548,-0.000000,0.061015 LARM_JOINT2 0.984529,0.000000,-0.175211,-0.001776 LARM_JOINT3 0.669635,0.000000,-0.296356,0.681001 LLEG_JOINT2 0.996658,-0.081002,0.000000,0.010567 LLEG_JOINT4 0.979308,-0.182021,-0.000000,-0.088456 RARM_JOINT2 0.965001,0.000000,0.247489,0.086731 RARM_JOINT3 0.686983,0.000000,0.224501,-0.691125 RLEG_JOINT2 0.996985,0.025619,0.000000,0.073249 RLEG_JOINT4 0.994315,-0.085293,-0.000000,-0.063743 WAIST 0.985143,0.000000,-0.168221,0.034573 WAIST_JOINT0 0.985193,0.000000,-0.170752,0.015464 WAIST_JOINT1 0.999866,-0.013302,0.000000,-0.009580 END:
KINECT_DATA POSITION:2.091270,0.191569,-6.011899 HEAD_JOINT1 0.997426,0.037867,-0.000000,0.060895 LARM_JOINT2 0.979959,0.000000,-0.197207,-0.028103 LARM_JOINT3 0.642730,0.000000,-0.213962,0.735608 LLEG_JOINT2 0.996809,-0.079193,0.000000,0.009969 LLEG_JOINT4 0.978603,-0.186135,-0.000000,-0.087699 RARM_JOINT2 0.965205,0.000000,0.247170,0.085359 RARM_JOINT3 0.688482,0.000000,0.227069,-0.688790 RLEG_JOINT2 0.997172,0.032772,0.000000,0.067626 RLEG_JOINT4 0.989087,-0.123569,-0.000000,-0.080238 WAIST 0.985075,0.000000,-0.168550,0.034909 WAIST_JOINT0 0.985183,0.000000,-0.170821,0.015337 WAIST_JOINT1 0.999878,-0.012980,0.000000,-0.008726 END:
KINECT_DATA POSITION:2.089715,0.190845,-6.012859 HEAD_JOINT1 0.997493,0.038366,-0.000000,0.059457 LARM_JOINT2 0.980397,0.000000,-0.196627,-0.012641 LARM_JOINT3 0.641585,0.000000,-0.258423,0.722210 LLEG_JOINT2 0.996588,-0.081816,0.000000,0.010864 LLEG_JOINT4 0.979312,-0.181551,-0.000000,-0.089373 RARM_JOINT2 0.965261,0.000000,0.248131,0.081871 RARM_JOINT3 0.689020,0.000000,0.225005,-0.688930 RLEG_JOINT2 0.997178,0.032819,0.000000,0.067519 RLEG_JOINT4 0.990871,-0.114236,-0.000000,-0.071586 WAIST 0.985159,0.000000,-0.167996,0.035188 WAIST_JOINT0 0.985000,0.000000,-0.171819,0.015893 WAIST_JOINT1 0.999891,-0.012519,0.000000,-0.007779 END:
KINECT_DATA POSITION:2.086747,0.191774,-6.009476 HEAD_JOINT1 0.997384,0.039129,-0.000000,0.060781 LARM_JOINT2 0.980825,0.000000,-0.194853,-0.003873 LARM_JOINT3 0.644152,0.000000,-0.278251,0.712491 LLEG_JOINT2 0.996583,-0.081874,0.000000,0.010932 LLEG_JOINT4 0.979389,-0.181301,-0.000000,-0.089037 RARM_JOINT2 0.965104,0.000000,0.248104,0.083777 RARM_JOINT3 0.690546,0.000000,0.224320,-0.687624 RLEG_JOINT2 0.996927,0.029867,0.000000,0.072425 RLEG_JOINT4 0.991105,-0.105342,-0.000000,-0.081323 WAIST 0.985145,0.000000,-0.167922,0.035938 WAIST_JOINT0 0.984867,0.000000,-0.172541,0.016304 WAIST_JOINT1 0.999891,-0.012651,0.000000,-0.007593 END:
KINECT_DATA POSITION:2.081456,0.192342,-6.009816 HEAD_JOINT1 0.997267,0.038268,-0.000000,0.063197 LARM_JOINT2 0.981527,0.000000,-0.191315,-0.001605 LARM_JOINT3 0.648714,0.000000,-0.273989,0.710000 LLEG_JOINT2 0.996654,-0.080942,0.000000,0.011366 LLEG_JOINT4 0.978929,-0.183491,-0.000000,-0.089602 RARM_JOINT2 0.965150,0.000000,0.247141,0.086068 RARM_JOINT3 0.690197,0.000000,0.217358,-0.690205 RLEG_JOINT2 0.996851,0.029353,0.000000,0.073671 RLEG_JOINT4 0.990614,-0.106633,-0.000000,-0.085517 WAIST 0.985064,0.000000,-0.168176,0.036965 WAIST_JOINT0 0.984667,0.000000,-0.173637,0.016776 WAIST_JOINT1 0.999892,-0.012526,0.000000,-0.007657 END:
KINECT_DATA POSITION:2.074229,0.192911,-6.009159 HEAD_JOINT1 0.997517,0.036234,-0.000000,0.060387 LARM_JOINT2 0.981957,0.000000,-0.189094,-0.001795 LARM_JOINT3 0.651473,0.000000,-0.276924,0.706325 LLEG_JOINT2 0.996289,-0.084986,0.000000,0.013651 LLEG_JOINT4 0.980451,-0.173582,-0.000000,-0.092654 RARM_JOINT2 0.965140,0.000000,0.246387,0.088303 RARM_JOINT3 0.686009,0.000000,0.219830,-0.693589 RLEG_JOINT2 0.996849,0.028435,0.000000,0.074051 RLEG_JOINT4 0.990468,-0.117663,-0.000000,-0.071618 WAIST 0.984933,0.000000,-0.168679,0.038148 WAIST_JOINT0 0.984514,0.000000,-0.174462,0.017153 WAIST_JOINT1 0.999902,-0.012410,0.000000,-0.006456 END:
KINECT_DATA POSITION:2.064135,0.192374,-6.008317 HEAD_JOINT1 0.997449,0.035683,-0.000000,0.061827 LARM_JOINT2 0.982085,0.000000,-0.188435,-0.001221 LARM_JOINT3 0.647490,0.000000,-0.267041,0.713755 LLEG_JOINT2 0.996476,-0.082787,0.000000,0.013505 LLEG_JOINT4 0.979652,-0.178555,-0.000000,-0.091649 RARM_JOINT2 0.965204,0.000000,0.244976,0.091480 RARM_JOINT3 0.686276,0.000000,0.221644,-0.692748 RLEG_JOINT2 0.997074,0.036643,0.000000,0.067088 RLEG_JOINT4 0.990030,-0.125705,-0.000000,-0.063556 WAIST 0.984957,0.000000,-0.168326,0.039070 WAIST_JOINT0 0.984419,0.000000,-0.174930,0.017871 WAIST_JOINT1 0.999904,-0.012438,0.000000,-0.006098 END:
KINECT_DATA POSITION:2.053739,0.191900,-6.005728 HEAD_JOINT1 0.997715,0.034746,-0.000000,0.057942 LARM_JOINT2 0.981956,0.000000,-0.189110,-0.000824 LARM_JOINT3 0.652720,0.000000,-0.169265,0.738448 LLEG_JOINT2 0.996461,-0.082850,0.000000,0.014199 LLEG_JOINT4 0.980021,-0.176925,-0.000000,-0.090868 RARM_JOINT2 0.965479,0.000000,0.245140,0.088070 RARM_JOINT3 0.685708,0.000000,0.220949,-0.693532 RLEG_JOINT2 0.996865,0.029977,0.000000,0.073224 RLEG_JOINT4 0.990293,-0.115745,-0.000000,-0.076966 WAIST 0.984643,0.000000,-0.169809,0.040542 WAIST_JOINT0 0.984329,0.000000,-0.175384,0.018347 WAIST_JOINT1 0.999904,-0.012876,0.000000,-0.005041 END:
KINECT_DATA POSITION:2.041053,0.191161,-6.003922 HEAD_JOINT1 0.997479,0.033735,-0.000000,0.062431 LARM_JOINT2 0.982448,0.000000,-0.186415,0.006683 LARM_JOINT3 0.691220,0.000000,-0.273754,0.668785 LLEG_JOINT2 0.996390,-0.083333,0.000000,0.016222 LLEG_JOINT4 0.979835,-0.176503,-0.000000,-0.093652 RARM_JOINT2 0.965331,0.000000,0.245044,0.089936 RARM_JOINT3 0.685687,0.000000,0.225149,-0.692201 RLEG_JOINT2 0.997003,0.035673,0.000000,0.068642 RLEG_JOINT4 0.989697,-0.124241,-0.000000,-0.071159 WAIST 0.984459,0.000000,-0.170802,0.040833 WAIST_JOINT0 0.984331,0.000000,-0.175316,0.018906 WAIST_JOINT1 0.999899,-0.013144,0.000000,-0.005435 END:
KINECT_DATA POSITION:2.035928,0.189446,-6.003624 HEAD_JOINT1 0.997330,0.032437,-0.000000,0.065428 LARM_JOINT2 0.984120,0.000000,-0.177423,-0.005367 LARM_JOINT3 0.683158,0.000000,-0.319053,0.656887 LLEG_JOINT2 0.996458,-0.082497,0.000000,0.016328 LLEG_JOINT4 0.979585,-0.178310,-0.000000,-0.092840 RARM_JOINT2 0.965421,0.000000,0.244151,0.091392 RARM_JOINT3 0.688385,0.000000,0.225782,-0.689310 RLEG_JOINT2 0.997028,0.039685,0.000000,0.066031 RLEG_JOINT4 0.989227,-0.132262,-0.000000,-0.062736 WAIST 0.984500,0.000000,-0.170304,0.041913 WAIST_JOINT0 0.984289,0.000000,-0.175484,0.019530 WAIST_JOINT1 0.999900,-0.013292,0.000000,-0.004751 END:
KINECT_DATA POSITION:2.030468,0.188559,-6.005150 HEAD_JOINT1 0.997343,0.031341,-0.000000,0.065759 LARM_JOINT2 0.984342,0.000000,-0.176064,-0.008486 LARM_JOINT3 0.681669,0.000000,-0.325962,0.655039 LLEG_JOINT2 0.996292,-0.084171,0.000000,0.017790 LLEG_JOINT4 0.979949,-0.175330,-0.000000,-0.094653 RARM_JOINT2 0.965088,0.000000,0.244544,0.093822 RARM_JOINT3 0.683424,0.000000,0.222262,-0.695364 RLEG_JOINT2 0.996807,0.033271,0.000000,0.072582 RLEG_JOINT4 0.989944,-0.124299,-0.000000,-0.067533 WAIST 0.984588,0.000000,-0.169727,0.042172 WAIST_JOINT0 0.984185,0.000000,-0.176070,0.019448 WAIST_JOINT1 0.999903,-0.013163,0.000000,-0.004497 END:
KINECT_DATA POSITION:2.027532,0.189459,-6.005270 HEAD_JOINT1 0.997220,0.030896,-0.000000,0.067803 LARM_JOINT2 0.984278,0.000000,-0.176284,-0.010997 LARM_JOINT3 0.680368,0.000000,-0.329677,0.654532 LLEG_JOINT2 0.996260,-0.084488,0.000000,0.018130 LLEG_JOINT4 0.980260,-0.173660,-0.000000,-0.094510 RARM_JOINT2 0.964976,0.000000,0.244452,0.095206 RARM_JOINT3 0.683364,0.000000,0.225916,-0.694245 RLEG_JOINT2 0.996568,0.027851,0.000000,0.077953 RLEG_JOINT4 0.990705,-0.104442,-0.000000,-0.087157 WAIST 0.984581,0.000000,-0.169702,0.042449 WAIST_JOINT0 0.984120,0.000000,-0.176416,0.019617 WAIST_JOINT1 0.999905,-0.013099,0.000000,-0.004314 END:
KINECT_DATA POSITION:2.019868,0.189234,-6.000228 HEAD_JOINT1 0.997178,0.030961,-0.000000,0.068391 LARM_JOINT2 0.979922,0.000000,-0.187822,-0.066900 LARM_JOINT3 0.641418,0.000000,-0.271711,0.717465 LLEG_JOINT2 0.996119,-0.085747,0.000000,0.019836 LLEG_JOINT4 0.980594,-0.170300,-0.000000,-0.097130 RARM_JOINT2 0.964830,0.000000,0.244479,0.096604 RARM_JOINT3 0.683695,0.000000,0.233065,-0.691550 RLEG_JOINT2 0.996608,0.032168,0.000000,0.075752 RLEG_JOINT4 0.991644,-0.110017,-0.000000,-0.067372 WAIST 0.984258,0.000000,-0.171375,0.043209 WAIST_JOINT0 0.983951,0.000000,-0.177396,0.019258 WAIST_JOINT1 0.999906,-0.013006,0.000000,-0.004341 END:
KINECT_DATA POSITION:2.016563,0.190429,-5.998634 HEAD_JOINT1 0.997234,0.031968,-0.000000,0.067099 LARM_JOINT2 0.980179,0.000000,-0.196862,-0.022250 LARM_JOINT3 0.634388,0.000000,-0.269626,0.724468 LLEG_JOINT2 0.996242,-0.084358,0.000000,0.019634 LLEG_JOINT4 0.980056,-0.173612,-0.000000,-0.096694 RARM_JOINT2 0.964694,0.000000,0.244958,0.096753 RARM_JOINT3 0.681759,0.000000,0.243407,-0.689897 RLEG_JOINT2 0.996729,0.035482,0.000000,0.072611 RLEG_JOINT4 0.990175,-0.120240,-0.000000,-0.071379 WAIST 0.984474,0.000000,-0.170335,0.042394 WAIST_JOINT0 0.983811,0.000000,-0.178144,0.019479 WAIST_JOINT1 0.999917,-0.012317,0.000000,-0.003659 END:
KINECT_DATA POSITION:2.011399,0.191524,-5.997440 HEAD_JOINT1 0.997051,0.034572,-0.000000,0.068511 LARM_JOINT2 0.980803,0.000000,-0.194532,-0.013528 LARM_JOINT3 0.631741,0.000000,-0.273875,0.725187 LLEG_JOINT2 0.996298,-0.083693,0.000000,0.019632 LLEG_JOINT4 0.979925,-0.174569,-0.000000,-0.096297 RARM_JOINT2 0.964431,0.000000,0.245639,0.097646 RARM_JOINT3 0.680586,0.000000,0.245844,-0.690191 RLEG_JOINT2 0.996649,0.035945,0.000000,0.073476 RLEG_JOINT4 0.989461,-0.125685,-0.000000,-0.071898 WAIST 0.984575,0.000000,-0.169704,0.042571 WAIST_JOINT0 0.983699,0.000000,-0.178714,0.019915 WAIST_JOINT1 0.999920,-0.012165,0.000000,-0.003523 END:
KINECT_DATA POSITION:2.004425,0.191316,-5.992824 HEAD_JOINT1 0.997133,0.035632,-0.000000,0.066756 LARM_JOINT2 0.981165,0.000000,-0.192941,-0.009373 LARM_JOINT3 0.642104,0.000000,-0.275038,0.715581 LLEG_JOINT2 0.996129,-0.085415,0.000000,0.020768 LLEG_JOINT4 0.980583,-0.170244,-0.000000,-0.097336 RARM_JOINT2 0.964183,0.000000,0.246440,0.098073 RARM_JOINT3 0.681336,0.000000,0.238203,-0.692128 RLEG_JOINT2 0.996736,0.037091,0.000000,0.071699 RLEG_JOINT4 0.989908,-0.126481,-0.000000,-0.063911 WAIST 0.984749,0.000000,-0.168409,0.043680 WAIST_JOINT0 0.983646,0.000000,-0.178983,0.020127 WAIST_JOINT1 0.999921,-0.012205,0.000000,-0.003038 END:
KINECT_DATA POSITION:1.998192,0.190073,-5.994654 HEAD_JOINT1 0.997234,0.034406,-0.000000,0.065883 LARM_JOINT2 0.980703,0.000000,-0.195446,-0.004755 LARM_JOINT3 0.679382,0.000000,-0.232766,0.695888 LLEG_JOINT2 0.996240,-0.084028,0.000000,0.021102 LLEG_JOINT4 0.980093,-0.173085,-0.000000,-0.097257 RARM_JOINT2 0.963728,0.000000,0.247289,0.100382 RARM_JOINT3 0.679861,0.000000,0.242102,-0.692225 RLEG_JOINT2 0.996789,0.039478,0.000000,0.069659 RLEG_JOINT4 0.991201,-0.114782,-0.000000,-0.065919 WAIST 0.984568,0.000000,-0.169267,0.044440 WAIST_JOINT0 0.983599,0.000000,-0.179255,0.020031 WAIST_JOINT1 0.999926,-0.011803,0.000000,-0.002843 END:
KINECT_DATA POSITION:1.994699,0.190101,-5.991423 HEAD_JOINT1 0.997267,0.034903,-0.000000,0.065110 LARM_JOINT2 0.981556,0.000000,-0.191134,-0.003882 LARM_JOINT3 0.708749,0.000000,-0.308886,0.634243 LLEG_JOINT2 0.996117,-0.085347,0.000000,0.021614 LLEG_JOINT4 0.980683,-0.169505,-0.000000,-0.097613 RARM_JOINT2 0.963580,0.000000,0.247670,0.100864 RARM_JOINT3 0.675902,0.000000,0.238846,-0.697215 RLEG_JOINT2 0.996818,0.041466,0.000000,0.068076 RLEG_JOINT4 0.990032,-0.122605,-0.000000,-0.069310 WAIST 0.984291,0.000000,-0.170851,0.044516 WAIST_JOINT0 0.983548,0.000000,-0.179535,0.020022 WAIST_JOINT1 0.999924,-0.012027,0.000000,-0.002551 END:
KINECT_DATA POSITION:1.994491,0.190895,-5.989749 HEAD_JOINT1 0.997282,0.034426,-0.000000,0.065139 LARM_JOINT2 0.981813,0.000000,-0.189519,-0.011227 LARM_JOINT3 0.696944,0.000000,-0.314143,0.644658 LLEG_JOINT2 0.996139,-0.085143,0.000000,0.021382 LLEG_JOINT4 0.980706,-0.169399,-0.000000,-0.097566 RARM_JOINT2 0.963344,0.000000,0.248134,0.101969 RARM_JOINT3 0.674750,0.000000,0.240270,-0.697842 RLEG_JOINT2 0.996625,0.040377,0.000000,0.071470 RLEG_JOINT4 0.989203,-0.130063,-0.000000,-0.067532 WAIST 0.984227,0.000000,-0.171169,0.044707 WAIST_JOINT0 0.983389,0.000000,-0.180429,0.019768 WAIST_JOINT1 0.999924,-0.012079,0.000000,-0.002481 END:
KINECT_DATA POSITION:1.995519,0.191869,-5.983478 HEAD_JOINT1 0.997243,0.034595,-0.000000,0.065646 LARM_JOINT2 0.981836,0.000000,-0.189318,-0.012559 LARM_JOINT3 0.695914,0.000000,-0.307047,0.649174 LLEG_JOINT2 0.996001,-0.086511,0.000000,0.022332 LLEG_JOINT4 0.980878,-0.166941,-0.000000,-0.100045 RARM_JOINT2 0.963235,0.000000,0.248458,0.102211 RARM_JOINT3 0.669078,0.000000,0.241639,-0.702813 RLEG_JOINT2 0.996718,0.039396,0.000000,0.070713 RLEG_JOINT4 0.989508,-0.129305,-0.000000,-0.064456 WAIST 0.983808,0.000000,-0.173491,0.044966 WAIST_JOINT0 0.982948,0.000000,-0.182829,0.019668 WAIST_JOINT1 0.999923,-0.012063,0.000000,-0.002803 END:
KINECT_DATA POSITION:2.015523,0.191540,-5.945009 HEAD_JOINT1 0.997017,0.031392,-0.000000,0.070512 LARM_JOINT2 0.976694,0.000000,-0.203240,-0.069006 LARM_JOINT3 0.629730,0.000000,-0.258057,0.732698 LLEG_JOINT2 0.995386,-0.093400,0.000000,0.022000 LLEG_JOINT4 0.982957,-0.152353,-0.000000,-0.102882 RARM_JOINT2 0.963438,0.000000,0.247897,0.101662 RARM_JOINT3 0.667737,0.000000,0.256662,-0.698750 RLEG_JOINT2 0.995934,0.013596,0.000000,0.089052 RLEG_JOINT4 0.991319,-0.075728,-0.000000,-0.107477 WAIST 0.983546,0.000000,-0.174715,0.045956 WAIST_JOINT0 0.981733,0.000000,-0.189276,0.019358 WAIST_JOINT1 0.999935,-0.010983,0.000000,-0.002997 END:
KINECT_DATA POSITION:2.047563,0.199571,-5.878184 HEAD_JOINT1 0.997183,0.030735,-0.000000,0.068417 LARM_JOINT2 0.981635,0.000000,-0.189648,-0.020626 LARM_JOINT3 0.645166,0.000000,-0.285746,0.708597 LLEG_JOINT2 0.994080,-0.106223,0.000000,0.022844 LLEG_JOINT4 0.986616,-0.121029,-0.000000,-0.109277 RARM_JOINT2 0.963674,0.000000,0.246712,0.102298 RARM_JOINT3 0.668665,0.000000,0.272196,-0.691951 RLEG_JOINT2 0.996066,0.022326,0.000000,0.085755 RLEG_JOINT4 0.992723,-0.072597,-0.000000,-0.096075 WAIST 0.983799,0.000000,-0.173438,0.045366 WAIST_JOINT0 0.981272,0.000000,-0.191465,0.021121 WAIST_JOINT1 0.999965,-0.008101,0.000000,-0.002130 END:
KINECT_DATA POSITION:2.081633,0.201728,-5.795690 HEAD_JOINT1 0.997025,0.031696,-0.000000,0.070264 LARM_JOINT2 0.982075,0.000000,-0.188064,-0.012664 LARM_JOINT3 0.656815,0.000000,-0.275897,0.701766 LLEG_JOINT2 0.994431,-0.103332,0.000000,0.020721 LLEG_JOINT4 0.987298,-0.116057,-0.000000,-0.108506 RARM_JOINT2 0.961262,0.000000,0.252125,0.111390 RARM_JOINT3 0.663130,0.000000,0.290854,-0.689683 RLEG_JOINT2 0.995899,0.019957,0.000000,0.088242 RLEG_JOINT4 0.991918,-0.057095,-0.000000,-0.113310 WAIST 0.984040,0.000000,-0.171815,0.046314 WAIST_JOINT0 0.981031,0.000000,-0.192614,0.021866 WAIST_JOINT1 0.999992,-0.003269,0.000000,-0.002338 END:
KINECT_DATA POSITION:2.113730,0.205816,-5.703102 HEAD_JOINT1 0.997101,0.033921,-0.000000,0.068111 LARM_JOINT2 0.982537,0.000000,-0.185694,-0.011793 LARM_JOINT3 0.726803,0.000000,-0.288474,0.623330 LLEG_JOINT2 0.995697,-0.091153,0.000000,0.016697 LLEG_JOINT4 0.985727,-0.131166,-0.000000,-0.105532 RARM_JOINT2 0.962642,0.000000,0.246776,0.111453 RARM_JOINT3 0.664070,0.000000,0.294551,-0.687205 RLEG_JOINT2 0.995739,0.020219,0.000000,0.089970 RLEG_JOINT4 0.991308,-0.041155,-0.000000,-0.124957 WAIST 0.983663,0.000000,-0.174787,0.043097 WAIST_JOINT0 0.980816,0.000000,-0.193888,0.020191 WAIST_JOINT1 0.999998,0.001429,0.000000,-0.001642 END:
KINECT_DATA POSITION:2.149027,0.209223,-5.601473 HEAD_JOINT1 0.997347,0.029543,-0.000000,0.066528 LARM_JOINT2 0.978097,0.000000,-0.161145,-0.131750 LARM_JOINT3 0.646871,0.000000,-0.361808,0.671307 LLEG_JOINT2 0.996721,-0.080275,0.000000,0.010117 LLEG_JOINT4 0.995891,-0.060852,-0.000000,-0.067067 RARM_JOINT2 0.963587,0.000000,0.245109,0.106868 RARM_JOINT3 0.664903,0.000000,0.294683,-0.686343 RLEG_JOINT2 0.995458,0.020718,0.000000,0.092924 RLEG_JOINT4 0.990577,-0.026930,-0.000000,-0.134282 WAIST 0.983410,0.000000,-0.175742,0.044948 WAIST_JOINT0 0.981162,0.000000,-0.192026,0.021146 WAIST_JOINT1 0.999987,0.005135,-0.000000,0.000601 END:
KINECT_DATA POSITION:2.178721,0.210782,-5.385976 HEAD_JOINT1 0.997471,0.035463,-0.000000,0.061596 LARM_JOINT2 0.975469,0.000000,-0.160563,-0.150596 LARM_JOINT3 0.620195,0.000000,-0.377220,0.687796 LLEG_JOINT2 0.997787,-0.066472,0.000000,0.001377 LLEG_JOINT4 0.996723,-0.059166,-0.000000,-0.055159 RARM_JOINT2 0.939102,0.000000,0.248220,0.237645 RARM_JOINT3 0.585609,0.000000,0.311167,-0.748490 RLEG_JOINT2 0.993864,-0.007316,0.000000,0.110363 RLEG_JOINT4 0.987189,0.073042,0.000000,-0.141853 WAIST 0.983413,0.000000,-0.176377,0.042306 WAIST_JOINT0 0.981588,0.000000,-0.190065,0.018972 WAIST_JOINT1 0.999939,0.010902,-0.000000,0.001603 END:
KINECT_DATA POSITION:2.165125,0.185900,-5.113052 HEAD_JOINT1 0.998017,0.032495,-0.000000,0.053899 LARM_JOINT2 0.974711,0.000000,-0.166620,-0.148919 LARM_JOINT3 0.614077,0.000000,-0.368994,0.697677 LLEG_JOINT2 0.996637,-0.081788,-0.000000,-0.005065 LLEG_JOINT4 0.998865,-0.000400,-0.000000,-0.047637 RARM_JOINT2 0.943704,0.000000,0.235463,0.232338 RARM_JOINT3 0.587149,0.000000,0.323702,-0.741938 RLEG_JOINT2 0.993668,-0.000642,0.000000,0.112351 RLEG_JOINT4 0.984047,0.089253,0.000000,-0.153899 WAIST 0.985245,0.000000,-0.166429,0.039932 WAIST_JOINT0 0.983007,0.000000,-0.182826,0.016492 WAIST_JOINT1 0.999897,0.014374,0.000000,-0.000479 END:
KINECT_DATA POSITION:2.092999,0.129685,-4.653505 HEAD_JOINT1 0.997758,0.042179,-0.000000,0.051959 LARM_JOINT2 0.975510,0.000000,-0.168550,-0.141322 LARM_JOINT3 0.608497,0.000000,-0.376674,0.698461 LLEG_JOINT2 0.994973,-0.099982,-0.000000,-0.005658 LLEG_JOINT4 0.995306,0.088371,0.000000,-0.039460 RARM_JOINT2 0.941797,0.000000,0.235213,0.240196 RARM_JOINT3 0.590657,0.000000,0.326056,-0.738114 RLEG_JOINT2 0.994714,0.053366,0.000000,0.087723 RLEG_JOINT4 0.993287,0.026700,0.000000,-0.112550 WAIST 0.985316,0.000000,-0.167881,0.031131 WAIST_JOINT0 0.984838,0.000000,-0.173195,0.009901 WAIST_JOINT1 0.999918,0.008648,0.000000,-0.009424 END:
KINECT_DATA POSITION:2.034106,0.094644,-4.123439 HEAD_JOINT1 0.997660,0.044516,-0.000000,0.051888 LARM_JOINT2 0.972922,0.000000,-0.181136,-0.143571 LARM_JOINT3 0.600576,0.000000,-0.403899,0.690054 LLEG_JOINT2 0.997540,-0.070076,0.000000,0.001878 LLEG_JOINT4 0.997372,-0.021682,-0.000000,-0.069133 RARM_JOINT2 0.941446,0.000000,0.219634,0.255813 RARM_JOINT3 0.571047,0.000000,0.327365,-0.752820 RLEG_JOINT2 0.999526,0.029102,0.000000,0.010016 RLEG_JOINT4 0.989656,0.137911,0.000000,0.039511 WAIST 0.985715,0.000000,-0.167590,0.016695 WAIST_JOINT0 0.987066,0.000000,-0.160287,0.002852 WAIST_JOINT1 0.999763,0.003744,0.000000,-0.021430 END:
KINECT_DATA POSITION:2.009949,0.113054,-3.509865 HEAD_JOINT1 0.997372,0.045953,-0.000000,0.056020 LARM_JOINT2 0.966306,0.000000,-0.188828,-0.174920 LARM_JOINT3 0.597297,0.000000,-0.452803,0.661971 LLEG_JOINT2 0.999835,-0.017594,0.000000,0.004480 LLEG_JOINT4 0.996679,0.069280,0.000000,-0.042786 RARM_JOINT2 0.955765,0.000000,0.272082,0.111735 RARM_JOINT3 0.617421,0.000000,0.045187,-0.785334 RLEG_JOINT2 0.995944,-0.071988,-0.000000,-0.053980 RLEG_JOINT4 0.978670,0.187943,0.000000,0.082958 WAIST 0.989006,0.000000,-0.147154,-0.014595 WAIST_JOINT0 0.990035,0.000000,-0.140744,-0.004602 WAIST_JOINT1 0.999620,0.004488,0.000000,-0.027207 END:
KINECT_DATA POSITION:1.901751,0.095495,-3.041998 HEAD_JOINT1 0.997956,0.036786,-0.000000,0.052261 LARM_JOINT2 0.962310,0.000000,-0.187208,-0.197262 LARM_JOINT3 0.578638,0.000000,-0.464269,0.670546 LLEG_JOINT2 0.999259,0.034027,0.000000,0.017996 LLEG_JOINT4 0.998131,0.024566,0.000000,-0.055954 RARM_JOINT2 0.970252,0.000000,0.228497,0.080001 RARM_JOINT3 0.628755,0.000000,0.030628,-0.777000 RLEG_JOINT2 0.991176,-0.113320,-0.000000,-0.068770 RLEG_JOINT4 0.998898,-0.039181,0.000000,0.025822 WAIST 0.989901,0.000000,-0.140345,-0.019983 WAIST_JOINT0 0.992719,0.000000,-0.120363,-0.004545 WAIST_JOINT1 0.999581,0.013580,0.000000,-0.025555 END:
KINECT_DATA POSITION:1.651894,-0.048349,-2.427194 HEAD_JOINT1 0.998669,0.019455,-0.000000,0.047764 LARM_JOINT2 0.964451,0.000000,-0.172135,-0.200511 LARM_JOINT3 0.567609,0.000000,-0.444945,0.692708 LLEG_JOINT2 0.995828,0.084404,0.000000,0.034686 LLEG_JOINT4 0.998277,0.009713,0.000000,-0.057867 RARM_JOINT2 0.968604,0.000000,0.246654,0.031120 RARM_JOINT3 0.678295,0.000000,0.159701,-0.717225 RLEG_JOINT2 0.988565,-0.133759,-0.000000,-0.069624 RLEG_JOINT4 0.996945,-0.072567,0.000000,0.028877 WAIST 0.990090,0.000000,-0.138726,-0.021844 WAIST_JOINT0 0.991886,0.000000,-0.127125,-0.001041 WAIST_JOINT1 0.999538,0.022620,0.000000,-0.020279 END:
KINECT_DATA POSITION:1.279312,-0.214811,-1.558793 HEAD_JOINT1 0.999062,0.010507,-0.000000,0.042003 LARM_JOINT2 0.942899,0.000000,-0.247655,-0.222730 LARM_JOINT3 0.586808,0.000000,-0.456062,0.669077 LLEG_JOINT2 0.990631,0.130267,0.000000,0.040992 LLEG_JOINT4 0.999061,0.035628,0.000000,-0.024671 RARM_JOINT2 0.969763,0.000000,0.164976,0.179838 RARM_JOINT3 0.561582,0.000000,0.353084,-0.748303 RLEG_JOINT2 0.981432,-0.176205,-0.000000,-0.075782 RLEG_JOINT4 0.999973,-0.007094,0.000000,0.001796 WAIST 0.989953,0.000000,-0.140982,-0.010875 WAIST_JOINT0 0.995812,0.000000,-0.091060,0.008204 WAIST_JOINT1 0.999823,0.015498,0.000000,-0.010648 END:
KINECT_DATA POSITION:0.615352,-0.248908,-0.553830 HEAD_JOINT1 0.998289,0.011297,-0.000000,0.057370 LARM_JOINT2 0.960353,0.000000,-0.133666,-0.244653 LARM_JOINT3 0.555767,0.000000,-0.464163,0.689693 LLEG_JOINT2 0.999028,0.018449,0.000000,0.040045 LLEG_JOINT4 0.996517,0.080972,0.000000,-0.019923 RARM_JOINT2 0.955808,0.000000,0.202123,0.213489 RARM_JOINT3 0.526944,0.000000,0.389193,-0.755552 RLEG_JOINT2 0.989470,-0.133965,-0.000000,-0.054795 RLEG_JOINT4 0.999562,-0.016756,0.000000,0.024374 WAIST 0.990391,0.000000,-0.138296,0.000507 WAIST_JOINT0 0.993369,0.000000,-0.114424,0.011145 WAIST_JOINT1 0.999858,0.002690,0.000000,-0.016644 END:
KINECT_DATA POSITION:0.088517,-0.223918,0.216323 HEAD_JOINT1 0.997143,0.008822,-0.000000,0.075021 LARM_JOINT2 0.951359,0.000000,-0.135629,-0.276624 LARM_JOINT3 0.559196,0.000000,-0.499117,0.661953 LLEG_JOINT2 0.989999,-0.141034,0.000000,0.003483 LLEG_JOINT4 0.978607,0.203485,0.000000,0.030382 RARM_JOINT2 0.940688,0.000000,0.246092,0.233547 RARM_JOINT3 0.586949,0.000000,0.384284,-0.712613 RLEG_JOINT2 0.998935,-0.046016,-0.000000,-0.003456 RLEG_JOINT4 0.996730,-0.080394,0.000000,0.008127 WAIST 0.994730,0.000000,-0.102072,0.009650 WAIST_JOINT0 0.994796,0.000000,-0.101167,0.012100 WAIST_JOINT1 0.999802,0.005381,0.000000,-0.019174 END:
KINECT_DATA POSITION:-0.299216,-0.220179,0.852884 HEAD_JOINT1 0.995512,-0.007998,0.000000,0.094301 LARM_JOINT2 0.918170,0.000000,-0.012077,-0.396003 LARM_JOINT3 0.476336,0.000000,-0.661769,0.578936 LLEG_JOINT2 0.969918,-0.243215,-0.000000,-0.010282 LLEG_JOINT4 0.986319,0.146790,0.000000,-0.075011 RARM_JOINT2 0.909897,0.000000,0.218209,0.352805 RARM_JOINT3 0.608250,0.000000,0.476460,-0.634837 RLEG_JOINT2 0.999105,0.004775,0.000000,0.042019 RLEG_JOINT4 0.993676,-0.106001,-0.000000,-0.037041 WAIST 0.996804,0.000000,-0.078357,0.015560 WAIST_JOINT0 0.994811,0.000000,-0.101614,-0.005034 WAIST_JOINT1 0.999490,0.024882,0.000000,-0.020001 END:
KINECT_DATA POSITION:-0.627290,-0.427598,1.763973 HEAD_JOINT1 0.995618,-0.020013,0.000000,0.091350 LARM_JOINT2 0.898533,0.000000,0.051460,-0.435879 LARM_JOINT3 0.601765,0.000000,-0.739381,0.301983 LLEG_JOINT2 0.975615,-0.218540,-0.000000,-0.020397 LLEG_JOINT4 0.996177,-0.084798,-0.000000,-0.021004 RARM_JOINT2 0.847638,0.000000,0.067711,0.526236 RARM_JOINT3 0.599917,0.000000,0.695067,-0.396210 RLEG_JOINT2 0.994950,0.017565,0.000000,0.098826 RLEG_JOINT4 0.991633,0.002304,0.000000,-0.129069 WAIST 0.997412,0.000000,-0.071081,0.010773 WAIST_JOINT0 0.995078,0.000000,-0.096235,-0.023649 WAIST_JOINT1 0.999236,0.030069,0.000000,-0.024957 END:
KINECT_DATA POSITION:-1.026255,-0.648170,2.913335 HEAD_JOINT1 0.995393,0.025898,-0.000000,0.092310 LARM_JOINT2 0.864932,0.000000,0.123972,-0.486338 LARM_JOINT3 0.645196,0.000000,-0.757432,0.100096 LLEG_JOINT2 0.947594,-0.318028,-0.000000,-0.030394 LLEG_JOINT4 0.996034,-0.087381,-0.000000,-0.016732 RARM_JOINT2 0.825883,0.000000,0.064622,0.560126 RARM_JOINT3 0.743652,0.000000,0.629687,-0.224668 RLEG_JOINT2 0.993752,0.094884,0.000000,0.058766 RLEG_JOINT4 0.988983,-0.144990,-0.000000,-0.029840 WAIST 0.999131,0.000000,-0.038977,-0.014763 WAIST_JOINT0 0.997065,0.000000,-0.071426,-0.027548 WAIST_JOINT1 0.998668,0.026542,0.000000,-0.044240 END:
KINECT_DATA POSITION:-1.286689,-0.678457,4.128830 HEAD_JOINT1 0.979252,0.198025,-0.000000,0.043040 LARM_JOINT2 0.907370,0.000000,-0.072290,-0.414069 LARM_JOINT3 0.805623,0.000000,-0.592310,-0.011839 LLEG_JOINT2 0.943121,-0.332415,-0.000000,-0.004850 LLEG_JOINT4 0.996176,-0.084528,-0.000000,-0.022122 RARM_JOINT2 0.829392,0.000000,0.098676,0.549884 RARM_JOINT3 0.893165,0.000000,0.449716,-0.003465 RLEG_JOINT2 0.997677,-0.047929,-0.000000,-0.048407 RLEG_JOINT4 0.988407,-0.151227,-0.000000,-0.013480 WAIST 0.999381,0.000000,-0.034616,-0.006238 WAIST_JOINT0 0.996037,0.000000,-0.073117,-0.050636 WAIST_JOINT1 0.998450,0.019699,0.000000,-0.052048 END:
KINECT_DATA POSITION:-1.530378,-0.436831,5.211931 HEAD_JOINT1 0.980668,0.180238,-0.000000,0.076192 LARM_JOINT2 0.869412,0.000000,-0.214391,-0.445151 LARM_JOINT3 0.889813,0.000000,-0.066414,-0.451467 LLEG_JOINT2 0.980720,-0.019780,-0.000000,-0.194413 LLEG_JOINT4 0.987394,-0.157449,0.000000,0.016233 RARM_JOINT2 0.825629,0.000000,0.146029,0.544989 RARM_JOINT3 0.933816,0.000000,0.356170,0.033609 RLEG_JOINT2 0.956416,-0.236046,-0.000000,-0.171902 RLEG_JOINT4 0.994072,-0.106469,0.000000,0.022036 WAIST 0.996157,0.000000,-0.085058,-0.020883 WAIST_JOINT0 0.998626,0.000000,-0.051339,0.010463 WAIST_JOINT1 0.994646,0.042868,0.000000,-0.094035 END:
KINECT_DATA POSITION:-1.457761,-0.938502,5.972983 HEAD_JOINT1 0.971581,0.187497,-0.000000,0.144480 LARM_JOINT2 0.266590,0.000000,-0.416282,0.869275 LARM_JOINT3 0.477509,0.000000,-0.818894,0.318429 LLEG_JOINT2 0.988254,-0.003475,-0.000000,-0.152780 LLEG_JOINT4 0.987019,-0.159880,0.000000,0.015202 RARM_JOINT2 0.972360,0.000000,0.149807,-0.179092 RARM_JOINT3 0.583875,0.000000,0.503231,0.637063 RLEG_JOINT2 0.855992,-0.262045,-0.000000,-0.445657 RLEG_JOINT4 0.990678,-0.106516,0.000000,0.084919 WAIST 0.994215,0.000000,-0.107396,-0.001539 WAIST_JOINT0 0.999036,0.000000,-0.032777,0.029214 WAIST_JOINT1 0.976871,0.030363,0.000000,-0.211663 END:
KINECT_DATA POSITION:-6.340375,-1.665390,8.037673 HEAD_JOINT1 0.888827,0.310415,-0.000000,0.337089 LARM_JOINT2 0.465884,0.000000,-0.569465,0.677246 LARM_JOINT3 0.761924,0.000000,-0.304329,0.571713 LLEG_JOINT2 0.971531,0.080122,0.000000,-0.222952 LLEG_JOINT4 0.984097,-0.176582,0.000000,0.019311 RARM_JOINT2 0.964395,0.000000,0.157936,-0.212127 RARM_JOINT3 0.514558,0.000000,0.236605,-0.824165 RLEG_JOINT2 0.976882,-0.022677,-0.000000,-0.212573 RLEG_JOINT4 0.988038,-0.152854,0.000000,0.020408 WAIST 0.992625,0.000000,0.068614,-0.099942 WAIST_JOINT0 0.999478,0.000000,-0.011299,0.030278 WAIST_JOINT1 0.973265,-0.071834,0.000000,-0.218162 END:
KINECT_DATA POSITION:-6.340375,-1.665390,8.037673 HEAD_JOINT1 0.888827,0.310415,-0.000000,0.337089 LARM_JOINT2 0.465884,0.000000,-0.569465,0.677246 LARM_JOINT3 0.761924,0.000000,-0.304329,0.571713 LLEG_JOINT2 0.971531,0.080122,0.000000,-0.222952 LLEG_JOINT4 0.984097,-0.176582,0.000000,0.019311 RARM_JOINT2 0.964395,0.000000,0.157936,-0.212127 RARM_JOINT3 0.514558,0.000000,0.236605,-0.824165 RLEG_JOINT2 0.976882,-0.022677,-0.000000,-0.212573 RLEG_JOINT4 0.988038,-0.152854,0.000000,0.020408 WAIST 0.992625,0.000000,0.068614,-0.099942 WAIST_JOINT0 0.999478,0.000000,-0.011299,0.030278 WAIST_JOINT1 0.973265,-0.071834,0.000000,-0.218162 END:
KINECT_DATA POSITION:-6.340375,-1.665390,8.037673 HEAD_JOINT1 0.888827,0.310415,-0.000000,0.337089 LARM_JOINT2 0.465884,0.000000,-0.569465,0.677246 LARM_JOINT3 0.761924,0.000000,-0.304329,0.571713 LLEG_JOINT2 0.971531,0.080122,0.000000,-0.222952 LLEG_JOINT4 0.984097,-0.176582,0.000000,0.019311 RARM_JOINT2 0.964395,0.000000,0.157936,-0.212127 RARM_JOINT3 0.514558,0.000000,0.236605,-0.824165 RLEG_JOINT2 0.976882,-0.022677,-0.000000,-0.212573 RLEG_JOINT4 0.988038,-0.152854,0.000000,0.020408 WAIST 0.992625,0.000000,0.068614,-0.099942 WAIST_JOINT0 0.999478,0.000000,-0.011299,0.030278 WAIST_JOINT1 0.973265,-0.071834,0.000000,-0.218162 END:
KINECT_DATA POSITION:-6.340375,-1.665390,8.037673 HEAD_JOINT1 0.888827,0.310415,-0.000000,0.337089 LARM_JOINT2 0.465884,0.000000,-0.569465,0.677246 LARM_JOINT3 0.761924,0.000000,-0.304329,0.571713 LLEG_JOINT2 0.971531,0.080122,0.000000,-0.222952 LLEG_JOINT4 0.984097,-0.176582,0.000000,0.019311 RARM_JOINT2 0.964395,0.000000,0.157936,-0.212127 RARM_JOINT3 0.514558,0.000000,0.236605,-0.824165 RLEG_JOINT2 0.976882,-0.022677,-0.000000,-0.212573 RLEG_JOINT4 0.988038,-0.152854,0.000000,0.020408 WAIST 0.992625,0.000000,0.068614,-0.099942 WAIST_JOINT0 0.999478,0.000000,-0.011299,0.030278 WAIST_JOINT1 0.973265,-0.071834,0.000000,-0.218162 END:
KINECT_DATA POSITION:-6.340375,-1.665390,8.037673 HEAD_JOINT1 0.888827,0.310415,-0.000000,0.337089 LARM_JOINT2 0.465884,0.000000,-0.569465,0.677246 LARM_JOINT3 0.761924,0.000000,-0.304329,0.571713 LLEG_JOINT2 0.971531,0.080122,0.000000,-0.222952 LLEG_JOINT4 0.984097,-0.176582,0.000000,0.019311 RARM_JOINT2 0.964395,0.000000,0.157936,-0.212127 RARM_JOINT3 0.514558,0.000000,0.236605,-0.824165 RLEG_JOINT2 0.976882,-0.022677,-0.000000,-0.212573 RLEG_JOINT4 0.988038,-0.152854,0.000000,0.020408 WAIST 0.992625,0.000000,0.068614,-0.099942 WAIST_JOINT0 0.999478,0.000000,-0.011299,0.030278 WAIST_JOINT1 0.973265,-0.071834,0.000000,-0.218162 END:
KINECT_DATA POSITION:-6.340375,-1.665390,8.037673 HEAD_JOINT1 0.888827,0.310415,-0.000000,0.337089 LARM_JOINT2 0.465884,0.000000,-0.569465,0.677246 LARM_JOINT3 0.761924,0.000000,-0.304329,0.571713 LLEG_JOINT2 0.971531,0.080122,0.000000,-0.222952 LLEG_JOINT4 0.984097,-0.176582,0.000000,0.019311 RARM_JOINT2 0.964395,0.000000,0.157936,-0.212127 RARM_JOINT3 0.514558,0.000000,0.236605,-0.824165 RLEG_JOINT2 0.976882,-0.022677,-0.000000,-0.212573 RLEG_JOINT4 0.988038,-0.152854,0.000000,0.020408 WAIST 0.992625,0.000000,0.068614,-0.099942 WAIST_JOINT0 0.999478,0.000000,-0.011299,0.030278 WAIST_JOINT1 0.973265,-0.071834,0.000000,-0.218162 END:
KINECT_DATA POSITION:-6.340375,-1.665390,8.037673 HEAD_JOINT1 0.888827,0.310415,-0.000000,0.337089 LARM_JOINT2 0.465884,0.000000,-0.569465,0.677246 LARM_JOINT3 0.761924,0.000000,-0.304329,0.571713 LLEG_JOINT2 0.971531,0.080122,0.000000,-0.222952 LLEG_JOINT4 0.984097,-0.176582,0.000000,0.019311 RARM_JOINT2 0.964395,0.000000,0.157936,-0.212127 RARM_JOINT3 0.514558,0.000000,0.236605,-0.824165 RLEG_JOINT2 0.976882,-0.022677,-0.000000,-0.212573 RLEG_JOINT4 0.988038,-0.152854,0.000000,0.020408 WAIST 0.992625,0.000000,0.068614,-0.099942 WAIST_JOINT0 0.999478,0.000000,-0.011299,0.030278 WAIST_JOINT1 0.973265,-0.071834,0.000000,-0.218162 END:
KINECT_DATA POSITION:-6.340375,-1.665390,8.037673 HEAD_JOINT1 0.888827,0.310415,-0.000000,0.337089 LARM_JOINT2 0.465884,0.000000,-0.569465,0.677246 LARM_JOINT3 0.761924,0.000000,-0.304329,0.571713 LLEG_JOINT2 0.971531,0.080122,0.000000,-0.222952 LLEG_JOINT4 0.984097,-0.176582,0.000000,0.019311 RARM_JOINT2 0.964395,0.000000,0.157936,-0.212127 RARM_JOINT3 0.514558,0.000000,0.236605,-0.824165 RLEG_JOINT2 0.976882,-0.022677,-0.000000,-0.212573 RLEG_JOINT4 0.988038,-0.152854,0.000000,0.020408 WAIST 0.992625,0.000000,0.068614,-0.099942 WAIST_JOINT0 0.999478,0.000000,-0.011299,0.030278 WAIST_JOINT1 0.973265,-0.071834,0.000000,-0.218162 END:
KINECT_DATA POSITION:-6.340375,-1.665390,8.037673 HEAD_JOINT1 0.888827,0.310415,-0.000000,0.337089 LARM_JOINT2 0.465884,0.000000,-0.569465,0.677246 LARM_JOINT3 0.761924,0.000000,-0.304329,0.571713 LLEG_JOINT2 0.971531,0.080122,0.000000,-0.222952 LLEG_JOINT4 0.984097,-0.176582,0.000000,0.019311 RARM_JOINT2 0.964395,0.000000,0.157936,-0.212127 RARM_JOINT3 0.514558,0.000000,0.236605,-0.824165 RLEG_JOINT2 0.976882,-0.022677,-0.000000,-0.212573 RLEG_JOINT4 0.988038,-0.152854,0.000000,0.020408 WAIST 0.992625,0.000000,0.068614,-0.099942 WAIST_JOINT0 0.999478,0.000000,-0.011299,0.030278 WAIST_JOINT1 0.973265,-0.071834,0.000000,-0.218162 END:
KINECT_DATA POSITION:-6.340375,-1.665390,8.037673 HEAD_JOINT1 0.888827,0.310415,-0.000000,0.337089 LARM_JOINT2 0.465884,0.000000,-0.569465,0.677246 LARM_JOINT3 0.761924,0.000000,-0.304329,0.571713 LLEG_JOINT2 0.971531,0.080122,0.000000,-0.222952 LLEG_JOINT4 0.984097,-0.176582,0.000000,0.019311 RARM_JOINT2 0.964395,0.000000,0.157936,-0.212127 RARM_JOINT3 0.514558,0.000000,0.236605,-0.824165 RLEG_JOINT2 0.976882,-0.022677,-0.000000,-0.212573 RLEG_JOINT4 0.988038,-0.152854,0.000000,0.020408 WAIST 0.992625,0.000000,0.068614,-0.099942 WAIST_JOINT0 0.999478,0.000000,-0.011299,0.030278 WAIST_JOINT1 0.973265,-0.071834,0.000000,-0.218162 END:
KINECT_DATA POSITION:-6.340375,-1.665390,8.037673 HEAD_JOINT1 0.888827,0.310415,-0.000000,0.337089 LARM_JOINT2 0.465884,0.000000,-0.569465,0.677246 LARM_JOINT3 0.761924,0.000000,-0.304329,0.571713 LLEG_JOINT2 0.971531,0.080122,0.000000,-0.222952 LLEG_JOINT4 0.984097,-0.176582,0.000000,0.019311 RARM_JOINT2 0.964395,0.000000,0.157936,-0.212127 RARM_JOINT3 0.514558,0.000000,0.236605,-0.824165 RLEG_JOINT2 0.976882,-0.022677,-0.000000,-0.212573 RLEG_JOINT4 0.988038,-0.152854,0.000000,0.020408 WAIST 0.992625,0.000000,0.068614,-0.099942 WAIST_JOINT0 0.999478,0.000000,-0.011299,0.030278 WAIST_JOINT1 0.973265,-0.071834,0.000000,-0.218162 END:
KINECT_DATA POSITION:-6.340375,-1.665390,8.037673 HEAD_JOINT1 0.888827,0.310415,-0.000000,0.337089 LARM_JOINT2 0.465884,0.000000,-0.569465,0.677246 LARM_JOINT3 0.761924,0.000000,-0.304329,0.571713 LLEG_JOINT2 0.971531,0.080122,0.000000,-0.222952 LLEG_JOINT4 0.984097,-0.176582,0.000000,0.019311 RARM_JOINT2 0.964395,0.000000,0.157936,-0.212127 RARM_JOINT3 0.514558,0.000000,0.236605,-0.824165 RLEG_JOINT2 0.976882,-0.022677,-0.000000,-0.212573 RLEG_JOINT4 0.988038,-0.152854,0.000000,0.020408 WAIST 0.992625,0.000000,0.068614,-0.099942 WAIST_JOINT0 0.999478,0.000000,-0.011299,0.030278 WAIST_JOINT1 0.973265,-0.071834,0.000000,-0.218162 END:
KINECT_DATA POSITION:-6.340375,-1.665390,8.037673 HEAD_JOINT1 0.888827,0.310415,-0.000000,0.337089 LARM_JOINT2 0.465884,0.000000,-0.569465,0.677246 LARM_JOINT3 0.761924,0.000000,-0.304329,0.571713 LLEG_JOINT2 0.971531,0.080122,0.000000,-0.222952 LLEG_JOINT4 0.984097,-0.176582,0.000000,0.019311 RARM_JOINT2 0.964395,0.000000,0.157936,-0.212127 RARM_JOINT3 0.514558,0.000000,0.236605,-0.824165 RLEG_JOINT2 0.976882,-0.022677,-0.000000,-0.212573 RLEG_JOINT4 0.988038,-0.152854,0.000000,0.020408 WAIST 0.992625,0.000000,0.068614,-0.099942 WAIST_JOINT0 0.999478,0.000000,-0.011299,0.030278 WAIST_JOINT1 0.973265,-0.071834,0.000000,-0.218162 END:
KINECT_DATA POSITION:-6.340375,-1.665390,8.037673 HEAD_JOINT1 0.888827,0.310415,-0.000000,0.337089 LARM_JOINT2 0.465884,0.000000,-0.569465,0.677246 LARM_JOINT3 0.761924,0.000000,-0.304329,0.571713 LLEG_JOINT2 0.971531,0.080122,0.000000,-0.222952 LLEG_JOINT4 0.984097,-0.176582,0.000000,0.019311 RARM_JOINT2 0.964395,0.000000,0.157936,-0.212127 RARM_JOINT3 0.514558,0.000000,0.236605,-0.824165 RLEG_JOINT2 0.976882,-0.022677,-0.000000,-0.212573 RLEG_JOINT4 0.988038,-0.152854,0.000000,0.020408 WAIST 0.992625,0.000000,0.068614,-0.099942 WAIST_JOINT0 0.999478,0.000000,-0.011299,0.030278 WAIST_JOINT1 0.973265,-0.071834,0.000000,-0.218162 END:
KINECT_DATA POSITION:-6.340375,-1.665390,8.037673 HEAD_JOINT1 0.888827,0.310415,-0.000000,0.337089 LARM_JOINT2 0.465884,0.000000,-0.569465,0.677246 LARM_JOINT3 0.761924,0.000000,-0.304329,0.571713 LLEG_JOINT2 0.971531,0.080122,0.000000,-0.222952 LLEG_JOINT4 0.984097,-0.176582,0.000000,0.019311 RARM_JOINT2 0.964395,0.000000,0.157936,-0.212127 RARM_JOINT3 0.514558,0.000000,0.236605,-0.824165 RLEG_JOINT2 0.976882,-0.022677,-0.000000,-0.212573 RLEG_JOINT4 0.988038,-0.152854,0.000000,0.020408 WAIST 0.992625,0.000000,0.068614,-0.099942 WAIST_JOINT0 0.999478,0.000000,-0.011299,0.030278 WAIST_JOINT1 0.973265,-0.071834,0.000000,-0.218162 END:
KINECT_DATA POSITION:-6.340375,-1.665390,8.037673 HEAD_JOINT1 0.888827,0.310415,-0.000000,0.337089 LARM_JOINT2 0.465884,0.000000,-0.569465,0.677246 LARM_JOINT3 0.761924,0.000000,-0.304329,0.571713 LLEG_JOINT2 0.971531,0.080122,0.000000,-0.222952 LLEG_JOINT4 0.984097,-0.176582,0.000000,0.019311 RARM_JOINT2 0.964395,0.000000,0.157936,-0.212127 RARM_JOINT3 0.514558,0.000000,0.236605,-0.824165 RLEG_JOINT2 0.976882,-0.022677,-0.000000,-0.212573 RLEG_JOINT4 0.988038,-0.152854,0.000000,0.020408 WAIST 0.992625,0.000000,0.068614,-0.099942 WAIST_JOINT0 0.999478,0.000000,-0.011299,0.030278 WAIST_JOINT1 0.973265,-0.071834,0.000000,-0.218162 END:
KINECT_DATA POSITION:-6.340375,-1.665390,8.037673 HEAD_JOINT1 0.888827,0.310415,-0.000000,0.337089 LARM_JOINT2 0.465884,0.000000,-0.569465,0.677246 LARM_JOINT3 0.761924,0.000000,-0.304329,0.571713 LLEG_JOINT2 0.971531,0.080122,0.000000,-0.222952 LLEG_JOINT4 0.984097,-0.176582,0.000000,0.019311 RARM_JOINT2 0.964395,0.000000,0.157936,-0.212127 RARM_JOINT3 0.514558,0.000000,0.236605,-0.824165 RLEG_JOINT2 0.976882,-0.022677,-0.000000,-0.212573 RLEG_JOINT4 0.988038,-0.152854,0.000000,0.020408 WAIST 0.992625,0.000000,0.068614,-0.099942 WAIST_JOINT0 0.999478,0.000000,-0.011299,0.030278 WAIST_JOINT1 0.973265,-0.071834,0.000000,-0.218162 END:
KINECT_DATA POSITION:-6.340375,-1.665390,8.037673 HEAD_JOINT1 0.888827,0.310415,-0.000000,0.337089 LARM_JOINT2 0.465884,0.000000,-0.569465,0.677246 LARM_JOINT3 0.761924,0.000000,-0.304329,0.571713 LLEG_JOINT2 0.971531,0.080122,0.000000,-0.222952 LLEG_JOINT4 0.984097,-0.176582,0.000000,0.019311 RARM_JOINT2 0.964395,0.000000,0.157936,-0.212127 RARM_JOINT3 0.514558,0.000000,0.236605,-0.824165 RLEG_JOINT2 0.976882,-0.022677,-0.000000,-0.212573 RLEG_JOINT4 0.988038,-0.152854,0.000000,0.020408 WAIST 0.992625,0.000000,0.068614,-0.099942 WAIST_JOINT0 0.999478,0.000000,-0.011299,0.030278 WAIST_JOINT1 0.973265,-0.071834,0.000000,-0.218162 END:
KINECT_DATA POSITION:-6.340375,-1.665390,8.037673 HEAD_JOINT1 0.888827,0.310415,-0.000000,0.337089 LARM_JOINT2 0.465884,0.000000,-0.569465,0.677246 LARM_JOINT3 0.761924,0.000000,-0.304329,0.571713 LLEG_JOINT2 0.971531,0.080122,0.000000,-0.222952 LLEG_JOINT4 0.984097,-0.176582,0.000000,0.019311 RARM_JOINT2 0.964395,0.000000,0.157936,-0.212127 RARM_JOINT3 0.514558,0.000000,0.236605,-0.824165 RLEG_JOINT2 0.976882,-0.022677,-0.000000,-0.212573 RLEG_JOINT4 0.988038,-0.152854,0.000000,0.020408 WAIST 0.992625,0.000000,0.068614,-0.099942 WAIST_JOINT0 0.999478,0.000000,-0.011299,0.030278 WAIST_JOINT1 0.973265,-0.071834,0.000000,-0.218162 END:
KINECT_DATA POSITION:-6.340375,-1.665390,8.037673 HEAD_JOINT1 0.888827,0.310415,-0.000000,0.337089 LARM_JOINT2 0.465884,0.000000,-0.569465,0.677246 LARM_JOINT3 0.761924,0.000000,-0.304329,0.571713 LLEG_JOINT2 0.971531,0.080122,0.000000,-0.222952 LLEG_JOINT4 0.984097,-0.176582,0.000000,0.019311 RARM_JOINT2 0.964395,0.000000,0.157936,-0.212127 RARM_JOINT3 0.514558,0.000000,0.236605,-0.824165 RLEG_JOINT2 0.976882,-0.022677,-0.000000,-0.212573 RLEG_JOINT4 0.988038,-0.152854,0.000000,0.020408 WAIST 0.992625,0.000000,0.068614,-0.099942 WAIST_JOINT0 0.999478,0.000000,-0.011299,0.030278 WAIST_JOINT1 0.973265,-0.071834,0.000000,-0.218162 END:
KINECT_DATA POSITION:-6.340375,-1.665390,8.037673 HEAD_JOINT1 0.888827,0.310415,-0.000000,0.337089 LARM_JOINT2 0.465884,0.000000,-0.569465,0.677246 LARM_JOINT3 0.761924,0.000000,-0.304329,0.571713 LLEG_JOINT2 0.971531,0.080122,0.000000,-0.222952 LLEG_JOINT4 0.984097,-0.176582,0.000000,0.019311 RARM_JOINT2 0.964395,0.000000,0.157936,-0.212127 RARM_JOINT3 0.514558,0.000000,0.236605,-0.824165 RLEG_JOINT2 0.976882,-0.022677,-0.000000,-0.212573 RLEG_JOINT4 0.988038,-0.152854,0.000000,0.020408 WAIST 0.992625,0.000000,0.068614,-0.099942 WAIST_JOINT0 0.999478,0.000000,-0.011299,0.030278 WAIST_JOINT1 0.973265,-0.071834,0.000000,-0.218162 END:
KINECT_DATA POSITION:-6.340375,-1.665390,8.037673 HEAD_JOINT1 0.888827,0.310415,-0.000000,0.337089 LARM_JOINT2 0.465884,0.000000,-0.569465,0.677246 LARM_JOINT3 0.761924,0.000000,-0.304329,0.571713 LLEG_JOINT2 0.971531,0.080122,0.000000,-0.222952 LLEG_JOINT4 0.984097,-0.176582,0.000000,0.019311 RARM_JOINT2 0.964395,0.000000,0.157936,-0.212127 RARM_JOINT3 0.514558,0.000000,0.236605,-0.824165 RLEG_JOINT2 0.976882,-0.022677,-0.000000,-0.212573 RLEG_JOINT4 0.988038,-0.152854,0.000000,0.020408 WAIST 0.992625,0.000000,0.068614,-0.099942 WAIST_JOINT0 0.999478,0.000000,-0.011299,0.030278 WAIST_JOINT1 0.973265,-0.071834,0.000000,-0.218162 END:
KINECT_DATA POSITION:-6.340375,-1.665390,8.037673 HEAD_JOINT1 0.888827,0.310415,-0.000000,0.337089 LARM_JOINT2 0.465884,0.000000,-0.569465,0.677246 LARM_JOINT3 0.761924,0.000000,-0.304329,0.571713 LLEG_JOINT2 0.971531,0.080122,0.000000,-0.222952 LLEG_JOINT4 0.984097,-0.176582,0.000000,0.019311 RARM_JOINT2 0.964395,0.000000,0.157936,-0.212127 RARM_JOINT3 0.514558,0.000000,0.236605,-0.824165 RLEG_JOINT2 0.976882,-0.022677,-0.000000,-0.212573 RLEG_JOINT4 0.988038,-0.152854,0.000000,0.020408 WAIST 0.992625,0.000000,0.068614,-0.099942 WAIST_JOINT0 0.999478,0.000000,-0.011299,0.030278 WAIST_JOINT1 0.973265,-0.071834,0.000000,-0.218162 END:
KINECT_DATA POSITION:-6.340375,-1.665390,8.037673 HEAD_JOINT1 0.888827,0.310415,-0.000000,0.337089 LARM_JOINT2 0.465884,0.000000,-0.569465,0.677246 LARM_JOINT3 0.761924,0.000000,-0.304329,0.571713 LLEG_JOINT2 0.971531,0.080122,0.000000,-0.222952 LLEG_JOINT4 0.984097,-0.176582,0.000000,0.019311 RARM_JOINT2 0.964395,0.000000,0.157936,-0.212127 RARM_JOINT3 0.514558,0.000000,0.236605,-0.824165 RLEG_JOINT2 0.976882,-0.022677,-0.000000,-0.212573 RLEG_JOINT4 0.988038,-0.152854,0.000000,0.020408 WAIST 0.992625,0.000000,0.068614,-0.099942 WAIST_JOINT0 0.999478,0.000000,-0.011299,0.030278 WAIST_JOINT1 0.973265,-0.071834,0.000000,-0.218162 END:
KINECT_DATA POSITION:-6.340375,-1.665390,8.037673 HEAD_JOINT1 0.888827,0.310415,-0.000000,0.337089 LARM_JOINT2 0.465884,0.000000,-0.569465,0.677246 LARM_JOINT3 0.761924,0.000000,-0.304329,0.571713 LLEG_JOINT2 0.971531,0.080122,0.000000,-0.222952 LLEG_JOINT4 0.984097,-0.176582,0.000000,0.019311 RARM_JOINT2 0.964395,0.000000,0.157936,-0.212127 RARM_JOINT3 0.514558,0.000000,0.236605,-0.824165 RLEG_JOINT2 0.976882,-0.022677,-0.000000,-0.212573 RLEG_JOINT4 0.988038,-0.152854,0.000000,0.020408 WAIST 0.992625,0.000000,0.068614,-0.099942 WAIST_JOINT0 0.999478,0.000000,-0.011299,0.030278 WAIST_JOINT1 0.973265,-0.071834,0.000000,-0.218162 END:
KINECT_DATA POSITION:-6.340375,-1.665390,8.037673 HEAD_JOINT1 0.888827,0.310415,-0.000000,0.337089 LARM_JOINT2 0.465884,0.000000,-0.569465,0.677246 LARM_JOINT3 0.761924,0.000000,-0.304329,0.571713 LLEG_JOINT2 0.971531,0.080122,0.000000,-0.222952 LLEG_JOINT4 0.984097,-0.176582,0.000000,0.019311 RARM_JOINT2 0.964395,0.000000,0.157936,-0.212127 RARM_JOINT3 0.514558,0.000000,0.236605,-0.824165 RLEG_JOINT2 0.976882,-0.022677,-0.000000,-0.212573 RLEG_JOINT4 0.988038,-0.152854,0.000000,0.020408 WAIST 0.992625,0.000000,0.068614,-0.099942 WAIST_JOINT0 0.999478,0.000000,-0.011299,0.030278 WAIST_JOINT1 0.973265,-0.071834,0.000000,-0.218162 END:
KINECT_DATA POSITION:-6.340375,-1.665390,8.037673 HEAD_JOINT1 0.888827,0.310415,-0.000000,0.337089 LARM_JOINT2 0.465884,0.000000,-0.569465,0.677246 LARM_JOINT3 0.761924,0.000000,-0.304329,0.571713 LLEG_JOINT2 0.971531,0.080122,0.000000,-0.222952 LLEG_JOINT4 0.984097,-0.176582,0.000000,0.019311 RARM_JOINT2 0.964395,0.000000,0.157936,-0.212127 RARM_JOINT3 0.514558,0.000000,0.236605,-0.824165 RLEG_JOINT2 0.976882,-0.022677,-0.000000,-0.212573 RLEG_JOINT4 0.988038,-0.152854,0.000000,0.020408 WAIST 0.992625,0.000000,0.068614,-0.099942 WAIST_JOINT0 0.999478,0.000000,-0.011299,0.030278 WAIST_JOINT1 0.973265,-0.071834,0.000000,-0.218162 END:
KINECT_DATA POSITION:-6.340375,-1.665390,8.037673 HEAD_JOINT1 0.888827,0.310415,-0.000000,0.337089 LARM_JOINT2 0.465884,0.000000,-0.569465,0.677246 LARM_JOINT3 0.761924,0.000000,-0.304329,0.571713 LLEG_JOINT2 0.971531,0.080122,0.000000,-0.222952 LLEG_JOINT4 0.984097,-0.176582,0.000000,0.019311 RARM_JOINT2 0.964395,0.000000,0.157936,-0.212127 RARM_JOINT3 0.514558,0.000000,0.236605,-0.824165 RLEG_JOINT2 0.976882,-0.022677,-0.000000,-0.212573 RLEG_JOINT4 0.988038,-0.152854,0.000000,0.020408 WAIST 0.992625,0.000000,0.068614,-0.099942 WAIST_JOINT0 0.999478,0.000000,-0.011299,0.030278 WAIST_JOINT1 0.973265,-0.071834,0.000000,-0.218162 END:
KINECT_DATA POSITION:-6.340375,-1.665390,8.037673 HEAD_JOINT1 0.888827,0.310415,-0.000000,0.337089 LARM_JOINT2 0.465884,0.000000,-0.569465,0.677246 LARM_JOINT3 0.761924,0.000000,-0.304329,0.571713 LLEG_JOINT2 0.971531,0.080122,0.000000,-0.222952 LLEG_JOINT4 0.984097,-0.176582,0.000000,0.019311 RARM_JOINT2 0.964395,0.000000,0.157936,-0.212127 RARM_JOINT3 0.514558,0.000000,0.236605,-0.824165 RLEG_JOINT2 0.976882,-0.022677,-0.000000,-0.212573 RLEG_JOINT4 0.988038,-0.152854,0.000000,0.020408 WAIST 0.992625,0.000000,0.068614,-0.099942 WAIST_JOINT0 0.999478,0.000000,-0.011299,0.030278 WAIST_JOINT1 0.973265,-0.071834,0.000000,-0.218162 END:
KINECT_DATA POSITION:-6.340375,-1.665390,8.037673 HEAD_JOINT1 0.888827,0.310415,-0.000000,0.337089 LARM_JOINT2 0.465884,0.000000,-0.569465,0.677246 LARM_JOINT3 0.761924,0.000000,-0.304329,0.571713 LLEG_JOINT2 0.971531,0.080122,0.000000,-0.222952 LLEG_JOINT4 0.984097,-0.176582,0.000000,0.019311 RARM_JOINT2 0.964395,0.000000,0.157936,-0.212127 RARM_JOINT3 0.514558,0.000000,0.236605,-0.824165 RLEG_JOINT2 0.976882,-0.022677,-0.000000,-0.212573 RLEG_JOINT4 0.988038,-0.152854,0.000000,0.020408 WAIST 0.992625,0.000000,0.068614,-0.099942 WAIST_JOINT0 0.999478,0.000000,-0.011299,0.030278 WAIST_JOINT1 0.973265,-0.071834,0.000000,-0.218162 END:
KINECT_DATA POSITION:-6.340375,-1.665390,8.037673 HEAD_JOINT1 0.888827,0.310415,-0.000000,0.337089 LARM_JOINT2 0.465884,0.000000,-0.569465,0.677246 LARM_JOINT3 0.761924,0.000000,-0.304329,0.571713 LLEG_JOINT2 0.971531,0.080122,0.000000,-0.222952 LLEG_JOINT4 0.984097,-0.176582,0.000000,0.019311 RARM_JOINT2 0.964395,0.000000,0.157936,-0.212127 RARM_JOINT3 0.514558,0.000000,0.236605,-0.824165 RLEG_JOINT2 0.976882,-0.022677,-0.000000,-0.212573 RLEG_JOINT4 0.988038,-0.152854,0.000000,0.020408 WAIST 0.992625,0.000000,0.068614,-0.099942 WAIST_JOINT0 0.999478,0.000000,-0.011299,0.030278 WAIST_JOINT1 0.973265,-0.071834,0.000000,-0.218162 END:
KINECT_DATA POSITION:-6.340375,-1.665390,8.037673 HEAD_JOINT1 0.888827,0.310415,-0.000000,0.337089 LARM_JOINT2 0.465884,0.000000,-0.569465,0.677246 LARM_JOINT3 0.761924,0.000000,-0.304329,0.571713 LLEG_JOINT2 0.971531,0.080122,0.000000,-0.222952 LLEG_JOINT4 0.984097,-0.176582,0.000000,0.019311 RARM_JOINT2 0.964395,0.000000,0.157936,-0.212127 RARM_JOINT3 0.514558,0.000000,0.236605,-0.824165 RLEG_JOINT2 0.976882,-0.022677,-0.000000,-0.212573 RLEG_JOINT4 0.988038,-0.152854,0.000000,0.020408 WAIST 0.992625,0.000000,0.068614,-0.099942 WAIST_JOINT0 0.999478,0.000000,-0.011299,0.030278 WAIST_JOINT1 0.973265,-0.071834,0.000000,-0.218162 END:
KINECT_DATA POSITION:-6.340375,-1.665390,8.037673 HEAD_JOINT1 0.888827,0.310415,-0.000000,0.337089 LARM_JOINT2 0.465884,0.000000,-0.569465,0.677246 LARM_JOINT3 0.761924,0.000000,-0.304329,0.571713 LLEG_JOINT2 0.971531,0.080122,0.000000,-0.222952 LLEG_JOINT4 0.984097,-0.176582,0.000000,0.019311 RARM_JOINT2 0.964395,0.000000,0.157936,-0.212127 RARM_JOINT3 0.514558,0.000000,0.236605,-0.824165 RLEG_JOINT2 0.976882,-0.022677,-0.000000,-0.212573 RLEG_JOINT4 0.988038,-0.152854,0.000000,0.020408 WAIST 0.992625,0.000000,0.068614,-0.099942 WAIST_JOINT0 0.999478,0.000000,-0.011299,0.030278 WAIST_JOINT1 0.973265,-0.071834,0.000000,-0.218162 END:
KINECT_DATA POSITION:-6.340375,-1.665390,8.037673 HEAD_JOINT1 0.888827,0.310415,-0.000000,0.337089 LARM_JOINT2 0.465884,0.000000,-0.569465,0.677246 LARM_JOINT3 0.761924,0.000000,-0.304329,0.571713 LLEG_JOINT2 0.971531,0.080122,0.000000,-0.222952 LLEG_JOINT4 0.984097,-0.176582,0.000000,0.019311 RARM_JOINT2 0.964395,0.000000,0.157936,-0.212127 RARM_JOINT3 0.514558,0.000000,0.236605,-0.824165 RLEG_JOINT2 0.976882,-0.022677,-0.000000,-0.212573 RLEG_JOINT4 0.988038,-0.152854,0.000000,0.020408 WAIST 0.992625,0.000000,0.068614,-0.099942 WAIST_JOINT0 0.999478,0.000000,-0.011299,0.030278 WAIST_JOINT1 0.973265,-0.071834,0.000000,-0.218162 END:
KINECT_DATA POSITION:-6.340375,-1.665390,8.037673 HEAD_JOINT1 0.888827,0.310415,-0.000000,0.337089 LARM_JOINT2 0.465884,0.000000,-0.569465,0.677246 LARM_JOINT3 0.761924,0.000000,-0.304329,0.571713 LLEG_JOINT2 0.971531,0.080122,0.000000,-0.222952 LLEG_JOINT4 0.984097,-0.176582,0.000000,0.019311 RARM_JOINT2 0.964395,0.000000,0.157936,-0.212127 RARM_JOINT3 0.514558,0.000000,0.236605,-0.824165 RLEG_JOINT2 0.976882,-0.022677,-0.000000,-0.212573 RLEG_JOINT4 0.988038,-0.152854,0.000000,0.020408 WAIST 0.992625,0.000000,0.068614,-0.099942 WAIST_JOINT0 0.999478,0.000000,-0.011299,0.030278 WAIST_JOINT1 0.973265,-0.071834,0.000000,-0.218162 END:
KINECT_DATA POSITION:-6.340375,-1.665390,8.037673 HEAD_JOINT1 0.888827,0.310415,-0.000000,0.337089 LARM_JOINT2 0.465884,0.000000,-0.569465,0.677246 LARM_JOINT3 0.761924,0.000000,-0.304329,0.571713 LLEG_JOINT2 0.971531,0.080122,0.000000,-0.222952 LLEG_JOINT4 0.984097,-0.176582,0.000000,0.019311 RARM_JOINT2 0.964395,0.000000,0.157936,-0.212127 RARM_JOINT3 0.514558,0.000000,0.236605,-0.824165 RLEG_JOINT2 0.976882,-0.022677,-0.000000,-0.212573 RLEG_JOINT4 0.988038,-0.152854,0.000000,0.020408 WAIST 0.992625,0.000000,0.068614,-0.099942 WAIST_JOINT0 0.999478,0.000000,-0.011299,0.030278 WAIST_JOINT1 0.973265,-0.071834,0.000000,-0.218162 END:
KINECT_DATA POSITION:-6.340375,-1.665390,8.037673 HEAD_JOINT1 0.888827,0.310415,-0.000000,0.337089 LARM_JOINT2 0.465884,0.000000,-0.569465,0.677246 LARM_JOINT3 0.761924,0.000000,-0.304329,0.571713 LLEG_JOINT2 0.971531,0.080122,0.000000,-0.222952 LLEG_JOINT4 0.984097,-0.176582,0.000000,0.019311 RARM_JOINT2 0.964395,0.000000,0.157936,-0.212127 RARM_JOINT3 0.514558,0.000000,0.236605,-0.824165 RLEG_JOINT2 0.976882,-0.022677,-0.000000,-0.212573 RLEG_JOINT4 0.988038,-0.152854,0.000000,0.020408 WAIST 0.992625,0.000000,0.068614,-0.099942 WAIST_JOINT0 0.999478,0.000000,-0.011299,0.030278 WAIST_JOINT1 0.973265,-0.071834,0.000000,-0.218162 END:
KINECT_DATA POSITION:-6.340375,-1.665390,8.037673 HEAD_JOINT1 0.888827,0.310415,-0.000000,0.337089 LARM_JOINT2 0.465884,0.000000,-0.569465,0.677246 LARM_JOINT3 0.761924,0.000000,-0.304329,0.571713 LLEG_JOINT2 0.971531,0.080122,0.000000,-0.222952 LLEG_JOINT4 0.984097,-0.176582,0.000000,0.019311 RARM_JOINT2 0.964395,0.000000,0.157936,-0.212127 RARM_JOINT3 0.514558,0.000000,0.236605,-0.824165 RLEG_JOINT2 0.976882,-0.022677,-0.000000,-0.212573 RLEG_JOINT4 0.988038,-0.152854,0.000000,0.020408 WAIST 0.992625,0.000000,0.068614,-0.099942 WAIST_JOINT0 0.999478,0.000000,-0.011299,0.030278 WAIST_JOINT1 0.973265,-0.071834,0.000000,-0.218162 END:
KINECT_DATA POSITION:-6.340375,-1.665390,8.037673 HEAD_JOINT1 0.888827,0.310415,-0.000000,0.337089 LARM_JOINT2 0.465884,0.000000,-0.569465,0.677246 LARM_JOINT3 0.761924,0.000000,-0.304329,0.571713 LLEG_JOINT2 0.971531,0.080122,0.000000,-0.222952 LLEG_JOINT4 0.984097,-0.176582,0.000000,0.019311 RARM_JOINT2 0.964395,0.000000,0.157936,-0.212127 RARM_JOINT3 0.514558,0.000000,0.236605,-0.824165 RLEG_JOINT2 0.976882,-0.022677,-0.000000,-0.212573 RLEG_JOINT4 0.988038,-0.152854,0.000000,0.020408 WAIST 0.992625,0.000000,0.068614,-0.099942 WAIST_JOINT0 0.999478,0.000000,-0.011299,0.030278 WAIST_JOINT1 0.973265,-0.071834,0.000000,-0.218162 END:
KINECT_DATA POSITION:-6.340375,-1.665390,8.037673 HEAD_JOINT1 0.888827,0.310415,-0.000000,0.337089 LARM_JOINT2 0.465884,0.000000,-0.569465,0.677246 LARM_JOINT3 0.761924,0.000000,-0.304329,0.571713 LLEG_JOINT2 0.971531,0.080122,0.000000,-0.222952 LLEG_JOINT4 0.984097,-0.176582,0.000000,0.019311 RARM_JOINT2 0.964395,0.000000,0.157936,-0.212127 RARM_JOINT3 0.514558,0.000000,0.236605,-0.824165 RLEG_JOINT2 0.976882,-0.022677,-0.000000,-0.212573 RLEG_JOINT4 0.988038,-0.152854,0.000000,0.020408 WAIST 0.992625,0.000000,0.068614,-0.099942 WAIST_JOINT0 0.999478,0.000000,-0.011299,0.030278 WAIST_JOINT1 0.973265,-0.071834,0.000000,-0.218162 END:
KINECT_DATA POSITION:-6.340375,-1.665390,8.037673 HEAD_JOINT1 0.888827,0.310415,-0.000000,0.337089 LARM_JOINT2 0.465884,0.000000,-0.569465,0.677246 LARM_JOINT3 0.761924,0.000000,-0.304329,0.571713 LLEG_JOINT2 0.971531,0.080122,0.000000,-0.222952 LLEG_JOINT4 0.984097,-0.176582,0.000000,0.019311 RARM_JOINT2 0.964395,0.000000,0.157936,-0.212127 RARM_JOINT3 0.514558,0.000000,0.236605,-0.824165 RLEG_JOINT2 0.976882,-0.022677,-0.000000,-0.212573 RLEG_JOINT4 0.988038,-0.152854,0.000000,0.020408 WAIST 0.992625,0.000000,0.068614,-0.099942 WAIST_JOINT0 0.999478,0.000000,-0.011299,0.030278 WAIST_JOINT1 0.973265,-0.071834,0.000000,-0.218162 END:
KINECT_DATA POSITION:-6.340375,-1.665390,8.037673 HEAD_JOINT1 0.888827,0.310415,-0.000000,0.337089 LARM_JOINT2 0.465884,0.000000,-0.569465,0.677246 LARM_JOINT3 0.761924,0.000000,-0.304329,0.571713 LLEG_JOINT2 0.971531,0.080122,0.000000,-0.222952 LLEG_JOINT4 0.984097,-0.176582,0.000000,0.019311 RARM_JOINT2 0.964395,0.000000,0.157936,-0.212127 RARM_JOINT3 0.514558,0.000000,0.236605,-0.824165 RLEG_JOINT2 0.976882,-0.022677,-0.000000,-0.212573 RLEG_JOINT4 0.988038,-0.152854,0.000000,0.020408 WAIST 0.992625,0.000000,0.068614,-0.099942 WAIST_JOINT0 0.999478,0.000000,-0.011299,0.030278 WAIST_JOINT1 0.973265,-0.071834,0.000000,-0.218162 END:
KINECT_DATA POSITION:-6.340375,-1.665390,8.037673 HEAD_JOINT1 0.888827,0.310415,-0.000000,0.337089 LARM_JOINT2 0.465884,0.000000,-0.569465,0.677246 LARM_JOINT3 0.761924,0.000000,-0.304329,0.571713 LLEG_JOINT2 0.971531,0.080122,0.000000,-0.222952 LLEG_JOINT4 0.984097,-0.176582,0.000000,0.019311 RARM_JOINT2 0.964395,0.000000,0.157936,-0.212127 RARM_JOINT3 0.514558,0.000000,0.236605,-0.824165 RLEG_JOINT2 0.976882,-0.022677,-0.000000,-0.212573 RLEG_JOINT4 0.988038,-0.152854,0.000000,0.020408 WAIST 0.992625,0.000000,0.068614,-0.099942 WAIST_JOINT0 0.999478,0.000000,-0.011299,0.030278 WAIST_JOINT1 0.973265,-0.071834,0.000000,-0.218162 END:
KINECT_DATA POSITION:-6.340375,-1.665390,8.037673 HEAD_JOINT1 0.888827,0.310415,-0.000000,0.337089 LARM_JOINT2 0.465884,0.000000,-0.569465,0.677246 LARM_JOINT3 0.761924,0.000000,-0.304329,0.571713 LLEG_JOINT2 0.971531,0.080122,0.000000,-0.222952 LLEG_JOINT4 0.984097,-0.176582,0.000000,0.019311 RARM_JOINT2 0.964395,0.000000,0.157936,-0.212127 RARM_JOINT3 0.514558,0.000000,0.236605,-0.824165 RLEG_JOINT2 0.976882,-0.022677,-0.000000,-0.212573 RLEG_JOINT4 0.988038,-0.152854,0.000000,0.020408 WAIST 0.992625,0.000000,0.068614,-0.099942 WAIST_JOINT0 0.999478,0.000000,-0.011299,0.030278 WAIST_JOINT1 0.973265,-0.071834,0.000000,-0.218162 END:
KINECT_DATA POSITION:-6.340375,-1.665390,8.037673 HEAD_JOINT1 0.888827,0.310415,-0.000000,0.337089 LARM_JOINT2 0.465884,0.000000,-0.569465,0.677246 LARM_JOINT3 0.761924,0.000000,-0.304329,0.571713 LLEG_JOINT2 0.971531,0.080122,0.000000,-0.222952 LLEG_JOINT4 0.984097,-0.176582,0.000000,0.019311 RARM_JOINT2 0.964395,0.000000,0.157936,-0.212127 RARM_JOINT3 0.514558,0.000000,0.236605,-0.824165 RLEG_JOINT2 0.976882,-0.022677,-0.000000,-0.212573 RLEG_JOINT4 0.988038,-0.152854,0.000000,0.020408 WAIST 0.992625,0.000000,0.068614,-0.099942 WAIST_JOINT0 0.999478,0.000000,-0.011299,0.030278 WAIST_JOINT1 0.973265,-0.071834,0.000000,-0.218162 END:
KINECT_DATA POSITION:-6.340375,-1.665390,8.037673 HEAD_JOINT1 0.888827,0.310415,-0.000000,0.337089 LARM_JOINT2 0.465884,0.000000,-0.569465,0.677246 LARM_JOINT3 0.761924,0.000000,-0.304329,0.571713 LLEG_JOINT2 0.971531,0.080122,0.000000,-0.222952 LLEG_JOINT4 0.984097,-0.176582,0.000000,0.019311 RARM_JOINT2 0.964395,0.000000,0.157936,-0.212127 RARM_JOINT3 0.514558,0.000000,0.236605,-0.824165 RLEG_JOINT2 0.976882,-0.022677,-0.000000,-0.212573 RLEG_JOINT4 0.988038,-0.152854,0.000000,0.020408 WAIST 0.992625,0.000000,0.068614,-0.099942 WAIST_JOINT0 0.999478,0.000000,-0.011299,0.030278 WAIST_JOINT1 0.973265,-0.071834,0.000000,-0.218162 END:
KINECT_DATA POSITION:-6.340375,-1.665390,8.037673 HEAD_JOINT1 0.888827,0.310415,-0.000000,0.337089 LARM_JOINT2 0.465884,0.000000,-0.569465,0.677246 LARM_JOINT3 0.761924,0.000000,-0.304329,0.571713 LLEG_JOINT2 0.971531,0.080122,0.000000,-0.222952 LLEG_JOINT4 0.984097,-0.176582,0.000000,0.019311 RARM_JOINT2 0.964395,0.000000,0.157936,-0.212127 RARM_JOINT3 0.514558,0.000000,0.236605,-0.824165 RLEG_JOINT2 0.976882,-0.022677,-0.000000,-0.212573 RLEG_JOINT4 0.988038,-0.152854,0.000000,0.020408 WAIST 0.992625,0.000000,0.068614,-0.099942 WAIST_JOINT0 0.999478,0.000000,-0.011299,0.030278 WAIST_JOINT1 0.973265,-0.071834,0.000000,-0.218162 END:
KINECT_DATA POSITION:-6.340375,-1.665390,8.037673 HEAD_JOINT1 0.888827,0.310415,-0.000000,0.337089 LARM_JOINT2 0.465884,0.000000,-0.569465,0.677246 LARM_JOINT3 0.761924,0.000000,-0.304329,0.571713 LLEG_JOINT2 0.971531,0.080122,0.000000,-0.222952 LLEG_JOINT4 0.984097,-0.176582,0.000000,0.019311 RARM_JOINT2 0.964395,0.000000,0.157936,-0.212127 RARM_JOINT3 0.514558,0.000000,0.236605,-0.824165 RLEG_JOINT2 0.976882,-0.022677,-0.000000,-0.212573 RLEG_JOINT4 0.988038,-0.152854,0.000000,0.020408 WAIST 0.992625,0.000000,0.068614,-0.099942 WAIST_JOINT0 0.999478,0.000000,-0.011299,0.030278 WAIST_JOINT1 0.973265,-0.071834,0.000000,-0.218162 END:
KINECT_DATA POSITION:-6.340375,-1.665390,8.037673 HEAD_JOINT1 0.888827,0.310415,-0.000000,0.337089 LARM_JOINT2 0.465884,0.000000,-0.569465,0.677246 LARM_JOINT3 0.761924,0.000000,-0.304329,0.571713 LLEG_JOINT2 0.971531,0.080122,0.000000,-0.222952 LLEG_JOINT4 0.984097,-0.176582,0.000000,0.019311 RARM_JOINT2 0.964395,0.000000,0.157936,-0.212127 RARM_JOINT3 0.514558,0.000000,0.236605,-0.824165 RLEG_JOINT2 0.976882,-0.022677,-0.000000,-0.212573 RLEG_JOINT4 0.988038,-0.152854,0.000000,0.020408 WAIST 0.992625,0.000000,0.068614,-0.099942 WAIST_JOINT0 0.999478,0.000000,-0.011299,0.030278 WAIST_JOINT1 0.973265,-0.071834,0.000000,-0.218162 END:
KINECT_DATA POSITION:-6.340375,-1.665390,8.037673 HEAD_JOINT1 0.888827,0.310415,-0.000000,0.337089 LARM_JOINT2 0.465884,0.000000,-0.569465,0.677246 LARM_JOINT3 0.761924,0.000000,-0.304329,0.571713 LLEG_JOINT2 0.971531,0.080122,0.000000,-0.222952 LLEG_JOINT4 0.984097,-0.176582,0.000000,0.019311 RARM_JOINT2 0.964395,0.000000,0.157936,-0.212127 RARM_JOINT3 0.514558,0.000000,0.236605,-0.824165 RLEG_JOINT2 0.976882,-0.022677,-0.000000,-0.212573 RLEG_JOINT4 0.988038,-0.152854,0.000000,0.020408 WAIST 0.992625,0.000000,0.068614,-0.099942 WAIST_JOINT0 0.999478,0.000000,-0.011299,0.030278 WAIST_JOINT1 0.973265,-0.071834,0.000000,-0.218162 END:
KINECT_DATA POSITION:-6.340375,-1.665390,8.037673 HEAD_JOINT1 0.888827,0.310415,-0.000000,0.337089 LARM_JOINT2 0.465884,0.000000,-0.569465,0.677246 LARM_JOINT3 0.761924,0.000000,-0.304329,0.571713 LLEG_JOINT2 0.971531,0.080122,0.000000,-0.222952 LLEG_JOINT4 0.984097,-0.176582,0.000000,0.019311 RARM_JOINT2 0.964395,0.000000,0.157936,-0.212127 RARM_JOINT3 0.514558,0.000000,0.236605,-0.824165 RLEG_JOINT2 0.976882,-0.022677,-0.000000,-0.212573 RLEG_JOINT4 0.988038,-0.152854,0.000000,0.020408 WAIST 0.992625,0.000000,0.068614,-0.099942 WAIST_JOINT0 0.999478,0.000000,-0.011299,0.030278 WAIST_JOINT1 0.973265,-0.071834,0.000000,-0.218162 END:
KINECT_DATA POSITION:-6.340375,-1.665390,8.037673 HEAD_JOINT1 0.888827,0.310415,-0.000000,0.337089 LARM_JOINT2 0.465884,0.000000,-0.569465,0.677246 LARM_JOINT3 0.761924,0.000000,-0.304329,0.571713 LLEG_JOINT2 0.971531,0.080122,0.000000,-0.222952 LLEG_JOINT4 0.984097,-0.176582,0.000000,0.019311 RARM_JOINT2 0.964395,0.000000,0.157936,-0.212127 RARM_JOINT3 0.514558,0.000000,0.236605,-0.824165 RLEG_JOINT2 0.976882,-0.022677,-0.000000,-0.212573 RLEG_JOINT4 0.988038,-0.152854,0.000000,0.020408 WAIST 0.992625,0.000000,0.068614,-0.099942 WAIST_JOINT0 0.999478,0.000000,-0.011299,0.030278 WAIST_JOINT1 0.973265,-0.071834,0.000000,-0.218162 END:
KINECT_DATA POSITION:-6.340375,-1.665390,8.037673 HEAD_JOINT1 0.888827,0.310415,-0.000000,0.337089 LARM_JOINT2 0.465884,0.000000,-0.569465,0.677246 LARM_JOINT3 0.761924,0.000000,-0.304329,0.571713 LLEG_JOINT2 0.971531,0.080122,0.000000,-0.222952 LLEG_JOINT4 0.984097,-0.176582,0.000000,0.019311 RARM_JOINT2 0.964395,0.000000,0.157936,-0.212127 RARM_JOINT3 0.514558,0.000000,0.236605,-0.824165 RLEG_JOINT2 0.976882,-0.022677,-0.000000,-0.212573 RLEG_JOINT4 0.988038,-0.152854,0.000000,0.020408 WAIST 0.992625,0.000000,0.068614,-0.099942 WAIST_JOINT0 0.999478,0.000000,-0.011299,0.030278 WAIST_JOINT1 0.973265,-0.071834,0.000000,-0.218162 END:
KINECT_DATA POSITION:-6.340375,-1.665390,8.037673 HEAD_JOINT1 0.888827,0.310415,-0.000000,0.337089 LARM_JOINT2 0.465884,0.000000,-0.569465,0.677246 LARM_JOINT3 0.761924,0.000000,-0.304329,0.571713 LLEG_JOINT2 0.971531,0.080122,0.000000,-0.222952 LLEG_JOINT4 0.984097,-0.176582,0.000000,0.019311 RARM_JOINT2 0.964395,0.000000,0.157936,-0.212127 RARM_JOINT3 0.514558,0.000000,0.236605,-0.824165 RLEG_JOINT2 0.976882,-0.022677,-0.000000,-0.212573 RLEG_JOINT4 0.988038,-0.152854,0.000000,0.020408 WAIST 0.992625,0.000000,0.068614,-0.099942 WAIST_JOINT0 0.999478,0.000000,-0.011299,0.030278 WAIST_JOINT1 0.973265,-0.071834,0.000000,-0.218162 END:
KINECT_DATA POSITION:-6.340375,-1.665390,8.037673 HEAD_JOINT1 0.888827,0.310415,-0.000000,0.337089 LARM_JOINT2 0.465884,0.000000,-0.569465,0.677246 LARM_JOINT3 0.761924,0.000000,-0.304329,0.571713 LLEG_JOINT2 0.971531,0.080122,0.000000,-0.222952 LLEG_JOINT4 0.984097,-0.176582,0.000000,0.019311 RARM_JOINT2 0.964395,0.000000,0.157936,-0.212127 RARM_JOINT3 0.514558,0.000000,0.236605,-0.824165 RLEG_JOINT2 0.976882,-0.022677,-0.000000,-0.212573 RLEG_JOINT4 0.988038,-0.152854,0.000000,0.020408 WAIST 0.992625,0.000000,0.068614,-0.099942 WAIST_JOINT0 0.999478,0.000000,-0.011299,0.030278 WAIST_JOINT1 0.973265,-0.071834,0.000000,-0.218162 END:
KINECT_DATA POSITION:-6.340375,-1.665390,8.037673 HEAD_JOINT1 0.888827,0.310415,-0.000000,0.337089 LARM_JOINT2 0.465884,0.000000,-0.569465,0.677246 LARM_JOINT3 0.761924,0.000000,-0.304329,0.571713 LLEG_JOINT2 0.971531,0.080122,0.000000,-0.222952 LLEG_JOINT4 0.984097,-0.176582,0.000000,0.019311 RARM_JOINT2 0.964395,0.000000,0.157936,-0.212127 RARM_JOINT3 0.514558,0.000000,0.236605,-0.824165 RLEG_JOINT2 0.976882,-0.022677,-0.000000,-0.212573 RLEG_JOINT4 0.988038,-0.152854,0.000000,0.020408 WAIST 0.992625,0.000000,0.068614,-0.099942 WAIST_JOINT0 0.999478,0.000000,-0.011299,0.030278 WAIST_JOINT1 0.973265,-0.071834,0.000000,-0.218162 END:
KINECT_DATA POSITION:-6.340375,-1.665390,8.037673 HEAD_JOINT1 0.888827,0.310415,-0.000000,0.337089 LARM_JOINT2 0.465884,0.000000,-0.569465,0.677246 LARM_JOINT3 0.761924,0.000000,-0.304329,0.571713 LLEG_JOINT2 0.971531,0.080122,0.000000,-0.222952 LLEG_JOINT4 0.984097,-0.176582,0.000000,0.019311 RARM_JOINT2 0.964395,0.000000,0.157936,-0.212127 RARM_JOINT3 0.514558,0.000000,0.236605,-0.824165 RLEG_JOINT2 0.976882,-0.022677,-0.000000,-0.212573 RLEG_JOINT4 0.988038,-0.152854,0.000000,0.020408 WAIST 0.992625,0.000000,0.068614,-0.099942 WAIST_JOINT0 0.999478,0.000000,-0.011299,0.030278 WAIST_JOINT1 0.973265,-0.071834,0.000000,-0.218162 END:
KINECT_DATA POSITION:-6.340375,-1.665390,8.037673 HEAD_JOINT1 0.888827,0.310415,-0.000000,0.337089 LARM_JOINT2 0.465884,0.000000,-0.569465,0.677246 LARM_JOINT3 0.761924,0.000000,-0.304329,0.571713 LLEG_JOINT2 0.971531,0.080122,0.000000,-0.222952 LLEG_JOINT4 0.984097,-0.176582,0.000000,0.019311 RARM_JOINT2 0.964395,0.000000,0.157936,-0.212127 RARM_JOINT3 0.514558,0.000000,0.236605,-0.824165 RLEG_JOINT2 0.976882,-0.022677,-0.000000,-0.212573 RLEG_JOINT4 0.988038,-0.152854,0.000000,0.020408 WAIST 0.992625,0.000000,0.068614,-0.099942 WAIST_JOINT0 0.999478,0.000000,-0.011299,0.030278 WAIST_JOINT1 0.973265,-0.071834,0.000000,-0.218162 END:
KINECT_DATA POSITION:-6.340375,-1.665390,8.037673 HEAD_JOINT1 0.888827,0.310415,-0.000000,0.337089 LARM_JOINT2 0.465884,0.000000,-0.569465,0.677246 LARM_JOINT3 0.761924,0.000000,-0.304329,0.571713 LLEG_JOINT2 0.971531,0.080122,0.000000,-0.222952 LLEG_JOINT4 0.984097,-0.176582,0.000000,0.019311 RARM_JOINT2 0.964395,0.000000,0.157936,-0.212127 RARM_JOINT3 0.514558,0.000000,0.236605,-0.824165 RLEG_JOINT2 0.976882,-0.022677,-0.000000,-0.212573 RLEG_JOINT4 0.988038,-0.152854,0.000000,0.020408 WAIST 0.992625,0.000000,0.068614,-0.099942 WAIST_JOINT0 0.999478,0.000000,-0.011299,0.030278 WAIST_JOINT1 0.973265,-0.071834,0.000000,-0.218162 END:
KINECT_DATA POSITION:-6.340375,-1.665390,8.037673 HEAD_JOINT1 0.888827,0.310415,-0.000000,0.337089 LARM_JOINT2 0.465884,0.000000,-0.569465,0.677246 LARM_JOINT3 0.761924,0.000000,-0.304329,0.571713 LLEG_JOINT2 0.971531,0.080122,0.000000,-0.222952 LLEG_JOINT4 0.984097,-0.176582,0.000000,0.019311 RARM_JOINT2 0.964395,0.000000,0.157936,-0.212127 RARM_JOINT3 0.514558,0.000000,0.236605,-0.824165 RLEG_JOINT2 0.976882,-0.022677,-0.000000,-0.212573 RLEG_JOINT4 0.988038,-0.152854,0.000000,0.020408 WAIST 0.992625,0.000000,0.068614,-0.099942 WAIST_JOINT0 0.999478,0.000000,-0.011299,0.030278 WAIST_JOINT1 0.973265,-0.071834,0.000000,-0.218162 END:
KINECT_DATA POSITION:-6.340375,-1.665390,8.037673 HEAD_JOINT1 0.888827,0.310415,-0.000000,0.337089 LARM_JOINT2 0.465884,0.000000,-0.569465,0.677246 LARM_JOINT3 0.761924,0.000000,-0.304329,0.571713 LLEG_JOINT2 0.971531,0.080122,0.000000,-0.222952 LLEG_JOINT4 0.984097,-0.176582,0.000000,0.019311 RARM_JOINT2 0.964395,0.000000,0.157936,-0.212127 RARM_JOINT3 0.514558,0.000000,0.236605,-0.824165 RLEG_JOINT2 0.976882,-0.022677,-0.000000,-0.212573 RLEG_JOINT4 0.988038,-0.152854,0.000000,0.020408 WAIST 0.992625,0.000000,0.068614,-0.099942 WAIST_JOINT0 0.999478,0.000000,-0.011299,0.030278 WAIST_JOINT1 0.973265,-0.071834,0.000000,-0.218162 END:
KINECT_DATA POSITION:-6.340375,-1.665390,8.037673 HEAD_JOINT1 0.888827,0.310415,-0.000000,0.337089 LARM_JOINT2 0.465884,0.000000,-0.569465,0.677246 LARM_JOINT3 0.761924,0.000000,-0.304329,0.571713 LLEG_JOINT2 0.971531,0.080122,0.000000,-0.222952 LLEG_JOINT4 0.984097,-0.176582,0.000000,0.019311 RARM_JOINT2 0.964395,0.000000,0.157936,-0.212127 RARM_JOINT3 0.514558,0.000000,0.236605,-0.824165 RLEG_JOINT2 0.976882,-0.022677,-0.000000,-0.212573 RLEG_JOINT4 0.988038,-0.152854,0.000000,0.020408 WAIST 0.992625,0.000000,0.068614,-0.099942 WAIST_JOINT0 0.999478,0.000000,-0.011299,0.030278 WAIST_JOINT1 0.973265,-0.071834,0.000000,-0.218162 END:
KINECT_DATA POSITION:-6.340375,-1.665390,8.037673 HEAD_JOINT1 0.888827,0.310415,-0.000000,0.337089 LARM_JOINT2 0.465884,0.000000,-0.569465,0.677246 LARM_JOINT3 0.761924,0.000000,-0.304329,0.571713 LLEG_JOINT2 0.971531,0.080122,0.000000,-0.222952 LLEG_JOINT4 0.984097,-0.176582,0.000000,0.019311 RARM_JOINT2 0.964395,0.000000,0.157936,-0.212127 RARM_JOINT3 0.514558,0.000000,0.236605,-0.824165 RLEG_JOINT2 0.976882,-0.022677,-0.000000,-0.212573 RLEG_JOINT4 0.988038,-0.152854,0.000000,0.020408 WAIST 0.992625,0.000000,0.068614,-0.099942 WAIST_JOINT0 0.999478,0.000000,-0.011299,0.030278 WAIST_JOINT1 0.973265,-0.071834,0.000000,-0.218162 END:
KINECT_DATA POSITION:-6.340375,-1.665390,8.037673 HEAD_JOINT1 0.888827,0.310415,-0.000000,0.337089 LARM_JOINT2 0.465884,0.000000,-0.569465,0.677246 LARM_JOINT3 0.761924,0.000000,-0.304329,0.571713 LLEG_JOINT2 0.971531,0.080122,0.000000,-0.222952 LLEG_JOINT4 0.984097,-0.176582,0.000000,0.019311 RARM_JOINT2 0.964395,0.000000,0.157936,-0.212127 RARM_JOINT3 0.514558,0.000000,0.236605,-0.824165 RLEG_JOINT2 0.976882,-0.022677,-0.000000,-0.212573 RLEG_JOINT4 0.988038,-0.152854,0.000000,0.020408 WAIST 0.992625,0.000000,0.068614,-0.099942 WAIST_JOINT0 0.999478,0.000000,-0.011299,0.030278 WAIST_JOINT1 0.973265,-0.071834,0.000000,-0.218162 END:
KINECT_DATA POSITION:-6.340375,-1.665390,8.037673 HEAD_JOINT1 0.888827,0.310415,-0.000000,0.337089 LARM_JOINT2 0.465884,0.000000,-0.569465,0.677246 LARM_JOINT3 0.761924,0.000000,-0.304329,0.571713 LLEG_JOINT2 0.971531,0.080122,0.000000,-0.222952 LLEG_JOINT4 0.984097,-0.176582,0.000000,0.019311 RARM_JOINT2 0.964395,0.000000,0.157936,-0.212127 RARM_JOINT3 0.514558,0.000000,0.236605,-0.824165 RLEG_JOINT2 0.976882,-0.022677,-0.000000,-0.212573 RLEG_JOINT4 0.988038,-0.152854,0.000000,0.020408 WAIST 0.992625,0.000000,0.068614,-0.099942 WAIST_JOINT0 0.999478,0.000000,-0.011299,0.030278 WAIST_JOINT1 0.973265,-0.071834,0.000000,-0.218162 END:
KINECT_DATA POSITION:-6.340375,-1.665390,8.037673 HEAD_JOINT1 0.888827,0.310415,-0.000000,0.337089 LARM_JOINT2 0.465884,0.000000,-0.569465,0.677246 LARM_JOINT3 0.761924,0.000000,-0.304329,0.571713 LLEG_JOINT2 0.971531,0.080122,0.000000,-0.222952 LLEG_JOINT4 0.984097,-0.176582,0.000000,0.019311 RARM_JOINT2 0.964395,0.000000,0.157936,-0.212127 RARM_JOINT3 0.514558,0.000000,0.236605,-0.824165 RLEG_JOINT2 0.976882,-0.022677,-0.000000,-0.212573 RLEG_JOINT4 0.988038,-0.152854,0.000000,0.020408 WAIST 0.992625,0.000000,0.068614,-0.099942 WAIST_JOINT0 0.999478,0.000000,-0.011299,0.030278 WAIST_JOINT1 0.973265,-0.071834,0.000000,-0.218162 END:
KINECT_DATA POSITION:-6.340375,-1.665390,8.037673 HEAD_JOINT1 0.888827,0.310415,-0.000000,0.337089 LARM_JOINT2 0.465884,0.000000,-0.569465,0.677246 LARM_JOINT3 0.761924,0.000000,-0.304329,0.571713 LLEG_JOINT2 0.971531,0.080122,0.000000,-0.222952 LLEG_JOINT4 0.984097,-0.176582,0.000000,0.019311 RARM_JOINT2 0.964395,0.000000,0.157936,-0.212127 RARM_JOINT3 0.514558,0.000000,0.236605,-0.824165 RLEG_JOINT2 0.976882,-0.022677,-0.000000,-0.212573 RLEG_JOINT4 0.988038,-0.152854,0.000000,0.020408 WAIST 0.992625,0.000000,0.068614,-0.099942 WAIST_JOINT0 0.999478,0.000000,-0.011299,0.030278 WAIST_JOINT1 0.973265,-0.071834,0.000000,-0.218162 END:
KINECT_DATA POSITION:-6.340375,-1.665390,8.037673 HEAD_JOINT1 0.888827,0.310415,-0.000000,0.337089 LARM_JOINT2 0.465884,0.000000,-0.569465,0.677246 LARM_JOINT3 0.761924,0.000000,-0.304329,0.571713 LLEG_JOINT2 0.971531,0.080122,0.000000,-0.222952 LLEG_JOINT4 0.984097,-0.176582,0.000000,0.019311 RARM_JOINT2 0.964395,0.000000,0.157936,-0.212127 RARM_JOINT3 0.514558,0.000000,0.236605,-0.824165 RLEG_JOINT2 0.976882,-0.022677,-0.000000,-0.212573 RLEG_JOINT4 0.988038,-0.152854,0.000000,0.020408 WAIST 0.992625,0.000000,0.068614,-0.099942 WAIST_JOINT0 0.999478,0.000000,-0.011299,0.030278 WAIST_JOINT1 0.973265,-0.071834,0.000000,-0.218162 END:
KINECT_DATA POSITION:-6.340375,-1.665390,8.037673 HEAD_JOINT1 0.888827,0.310415,-0.000000,0.337089 LARM_JOINT2 0.465884,0.000000,-0.569465,0.677246 LARM_JOINT3 0.761924,0.000000,-0.304329,0.571713 LLEG_JOINT2 0.971531,0.080122,0.000000,-0.222952 LLEG_JOINT4 0.984097,-0.176582,0.000000,0.019311 RARM_JOINT2 0.964395,0.000000,0.157936,-0.212127 RARM_JOINT3 0.514558,0.000000,0.236605,-0.824165 RLEG_JOINT2 0.976882,-0.022677,-0.000000,-0.212573 RLEG_JOINT4 0.988038,-0.152854,0.000000,0.020408 WAIST 0.992625,0.000000,0.068614,-0.099942 WAIST_JOINT0 0.999478,0.000000,-0.011299,0.030278 WAIST_JOINT1 0.973265,-0.071834,0.000000,-0.218162 END:
KINECT_DATA POSITION:-6.340375,-1.665390,8.037673 HEAD_JOINT1 0.888827,0.310415,-0.000000,0.337089 LARM_JOINT2 0.465884,0.000000,-0.569465,0.677246 LARM_JOINT3 0.761924,0.000000,-0.304329,0.571713 LLEG_JOINT2 0.971531,0.080122,0.000000,-0.222952 LLEG_JOINT4 0.984097,-0.176582,0.000000,0.019311 RARM_JOINT2 0.964395,0.000000,0.157936,-0.212127 RARM_JOINT3 0.514558,0.000000,0.236605,-0.824165 RLEG_JOINT2 0.976882,-0.022677,-0.000000,-0.212573 RLEG_JOINT4 0.988038,-0.152854,0.000000,0.020408 WAIST 0.992625,0.000000,0.068614,-0.099942 WAIST_JOINT0 0.999478,0.000000,-0.011299,0.030278 WAIST_JOINT1 0.973265,-0.071834,0.000000,-0.218162 END:
KINECT_DATA POSITION:-6.340375,-1.665390,8.037673 HEAD_JOINT1 0.888827,0.310415,-0.000000,0.337089 LARM_JOINT2 0.465884,0.000000,-0.569465,0.677246 LARM_JOINT3 0.761924,0.000000,-0.304329,0.571713 LLEG_JOINT2 0.971531,0.080122,0.000000,-0.222952 LLEG_JOINT4 0.984097,-0.176582,0.000000,0.019311 RARM_JOINT2 0.964395,0.000000,0.157936,-0.212127 RARM_JOINT3 0.514558,0.000000,0.236605,-0.824165 RLEG_JOINT2 0.976882,-0.022677,-0.000000,-0.212573 RLEG_JOINT4 0.988038,-0.152854,0.000000,0.020408 WAIST 0.992625,0.000000,0.068614,-0.099942 WAIST_JOINT0 0.999478,0.000000,-0.011299,0.030278 WAIST_JOINT1 0.973265,-0.071834,0.000000,-0.218162 END:
KINECT_DATA POSITION:-6.340375,-1.665390,8.037673 HEAD_JOINT1 0.888827,0.310415,-0.000000,0.337089 LARM_JOINT2 0.465884,0.000000,-0.569465,0.677246 LARM_JOINT3 0.761924,0.000000,-0.304329,0.571713 LLEG_JOINT2 0.971531,0.080122,0.000000,-0.222952 LLEG_JOINT4 0.984097,-0.176582,0.000000,0.019311 RARM_JOINT2 0.964395,0.000000,0.157936,-0.212127 RARM_JOINT3 0.514558,0.000000,0.236605,-0.824165 RLEG_JOINT2 0.976882,-0.022677,-0.000000,-0.212573 RLEG_JOINT4 0.988038,-0.152854,0.000000,0.020408 WAIST 0.992625,0.000000,0.068614,-0.099942 WAIST_JOINT0 0.999478,0.000000,-0.011299,0.030278 WAIST_JOINT1 0.973265,-0.071834,0.000000,-0.218162 END:
KINECT_DATA POSITION:-6.340375,-1.665390,8.037673 HEAD_JOINT1 0.888827,0.310415,-0.000000,0.337089 LARM_JOINT2 0.465884,0.000000,-0.569465,0.677246 LARM_JOINT3 0.761924,0.000000,-0.304329,0.571713 LLEG_JOINT2 0.971531,0.080122,0.000000,-0.222952 LLEG_JOINT4 0.984097,-0.176582,0.000000,0.019311 RARM_JOINT2 0.964395,0.000000,0.157936,-0.212127 RARM_JOINT3 0.514558,0.000000,0.236605,-0.824165 RLEG_JOINT2 0.976882,-0.022677,-0.000000,-0.212573 RLEG_JOINT4 0.988038,-0.152854,0.000000,0.020408 WAIST 0.992625,0.000000,0.068614,-0.099942 WAIST_JOINT0 0.999478,0.000000,-0.011299,0.030278 WAIST_JOINT1 0.973265,-0.071834,0.000000,-0.218162 END:
KINECT_DATA POSITION:-6.340375,-1.665390,8.037673 HEAD_JOINT1 0.888827,0.310415,-0.000000,0.337089 LARM_JOINT2 0.465884,0.000000,-0.569465,0.677246 LARM_JOINT3 0.761924,0.000000,-0.304329,0.571713 LLEG_JOINT2 0.971531,0.080122,0.000000,-0.222952 LLEG_JOINT4 0.984097,-0.176582,0.000000,0.019311 RARM_JOINT2 0.964395,0.000000,0.157936,-0.212127 RARM_JOINT3 0.514558,0.000000,0.236605,-0.824165 RLEG_JOINT2 0.976882,-0.022677,-0.000000,-0.212573 RLEG_JOINT4 0.988038,-0.152854,0.000000,0.020408 WAIST 0.992625,0.000000,0.068614,-0.099942 WAIST_JOINT0 0.999478,0.000000,-0.011299,0.030278 WAIST_JOINT1 0.973265,-0.071834,0.000000,-0.218162 END:
KINECT_DATA POSITION:-6.340375,-1.665390,8.037673 HEAD_JOINT1 0.888827,0.310415,-0.000000,0.337089 LARM_JOINT2 0.465884,0.000000,-0.569465,0.677246 LARM_JOINT3 0.761924,0.000000,-0.304329,0.571713 LLEG_JOINT2 0.971531,0.080122,0.000000,-0.222952 LLEG_JOINT4 0.984097,-0.176582,0.000000,0.019311 RARM_JOINT2 0.964395,0.000000,0.157936,-0.212127 RARM_JOINT3 0.514558,0.000000,0.236605,-0.824165 RLEG_JOINT2 0.976882,-0.022677,-0.000000,-0.212573 RLEG_JOINT4 0.988038,-0.152854,0.000000,0.020408 WAIST 0.992625,0.000000,0.068614,-0.099942 WAIST_JOINT0 0.999478,0.000000,-0.011299,0.030278 WAIST_JOINT1 0.973265,-0.071834,0.000000,-0.218162 END:
KINECT_DATA POSITION:-6.340375,-1.665390,8.037673 HEAD_JOINT1 0.888827,0.310415,-0.000000,0.337089 LARM_JOINT2 0.465884,0.000000,-0.569465,0.677246 LARM_JOINT3 0.761924,0.000000,-0.304329,0.571713 LLEG_JOINT2 0.971531,0.080122,0.000000,-0.222952 LLEG_JOINT4 0.984097,-0.176582,0.000000,0.019311 RARM_JOINT2 0.964395,0.000000,0.157936,-0.212127 RARM_JOINT3 0.514558,0.000000,0.236605,-0.824165 RLEG_JOINT2 0.976882,-0.022677,-0.000000,-0.212573 RLEG_JOINT4 0.988038,-0.152854,0.000000,0.020408 WAIST 0.992625,0.000000,0.068614,-0.099942 WAIST_JOINT0 0.999478,0.000000,-0.011299,0.030278 WAIST_JOINT1 0.973265,-0.071834,0.000000,-0.218162 END:
KINECT_DATA POSITION:-6.340375,-1.665390,8.037673 HEAD_JOINT1 0.888827,0.310415,-0.000000,0.337089 LARM_JOINT2 0.465884,0.000000,-0.569465,0.677246 LARM_JOINT3 0.761924,0.000000,-0.304329,0.571713 LLEG_JOINT2 0.971531,0.080122,0.000000,-0.222952 LLEG_JOINT4 0.984097,-0.176582,0.000000,0.019311 RARM_JOINT2 0.964395,0.000000,0.157936,-0.212127 RARM_JOINT3 0.514558,0.000000,0.236605,-0.824165 RLEG_JOINT2 0.976882,-0.022677,-0.000000,-0.212573 RLEG_JOINT4 0.988038,-0.152854,0.000000,0.020408 WAIST 0.992625,0.000000,0.068614,-0.099942 WAIST_JOINT0 0.999478,0.000000,-0.011299,0.030278 WAIST_JOINT1 0.973265,-0.071834,0.000000,-0.218162 END:
